!!!!SEGMENT: pl-kk--kk-i-1--017-001_anonim--gaudeamus-omnes.krn
!!!cenid: 15xx:730
!!!COM: Anonim
!!!COM-rismid: pe30004985
!!!CDT:
!!!CNT:
!!!OTL: Gaudeamus omnes
!!!OMV: 001
!!!PDT:
!!!AGN:
!!!SMS-siglum: PL-Kk
!!!SMS-shelfmark: Kk.I.1
!!!SMS-shelfwork: 017-001 W
!!!SMS-variant:
!!!SMS-altvar:
!!!NIFC-rismid: 300257971
!!!URL-scan: http://repozytorium.nifc.pl/skany/pl-kk-nut--i-1
!!!ONB-nifc: UWAGA: Cantus (s. 98r-101v, skan 0100-0104), Altus (s. 94r-96v, skan 0286-0290), Tenor (s. 90r-91r, skan 0479-0481), Bassus (s. 93r-95r, skan 0654-0657).
!!!AIN: 1 alto 1 bass 1 soprn 1 tenor
!!!key: d:dor
!!!finalis: d
**kern	**text	**text	**kern	**text	**text	**kern	**text	**text	**kern	**text	**text
*part4	*part4	*part4	*part3	*part3	*part3	*part2	*part2	*part2	*part1	*part1	*part1
*staff4	*staff4	*staff4	*staff3	*staff3	*staff3	*staff2	*staff2	*staff2	*staff1	*staff1	*staff1
*ICvox	*	*	*ICvox	*	*	*ICvox	*	*	*ICvox	*	*
*Ibass	*	*	*Itenor	*	*	*Ialto	*	*	*Isoprn	*	*
*I"BASSVS	*	*	*I"TENOR	*	*	*I"ALTVS	*	*	*I"CANTVS	*	*
*I'B	*	*	*I'T	*	*	*I'A	*	*	*I'S	*	*
*clefF4	*	*	*clefC5	*	*	*clefC4	*	*	*clefC3	*	*
*k[]	*	*	*k[]	*	*	*k[]	*	*	*k[]	*	*
*d:dor	*	*	*d:dor	*	*	*d:dor	*	*	*d:dor	*	*
*M2/1	*	*	*M2/1	*	*	*M2/1	*	*	*M2/1	*	*
*met(C|)	*	*	*met(C|)	*	*	*met(C|)	*	*	*met(C|)	*	*
=1-	=1-	=1-	=1-	=1-	=1-	=1-	=1-	=1-	=1-	=1-	=1-
!LO:TX:t=P:problem=all\middle	!	!	!LO:TX:t=P:problem=all\middle	!	!	!LO:TX:t=P:problem=all\middle	!	!	!LO:TX:t=P:problem=all\middle	!	!
!	!	!	!	!	!	!	!	!	!LO:TX:t=P::problem=ten utwór to "trzy w jednym"&colon; introit na trzy święta. \nAntyfona Gaudeamus jest wspólna, podmienia się tam tylko nazwę święta (visitatione/assumptione...). Potem są trzy wersety jeden po drugim, ale nie do śpiewania jeden po drugim, tylko do wyboru na trzy różne święta. Potem wraca się na Gaudemus i dopiero Gloria patri. Do tego jest jeszcze dopisana na mniejszej karcie druga gloria. \nW porozumieniu z NIFC transkrybuję to jednak zgodnie ze źródłem, czyli "ciurkiem", z drugą dopisaną glorią jako drugą częścią utworu.	!	!
2.C/	GAu-	.	1C	GAu-	.	1.G	GAu-	.	1c	GAu-	.
!LO:TX:t=P:problem=kreska pseudotaktowa	!	!	!	!	!	!	!	!	!	!	!
4BB/	.	.	.	.	.	.	.	.	.	.	.
2GG/	-de-	.	1D	-de-	.	.	.	.	2B/	-de-	.
!LO:TX:t=P:problem=kreska pseudotaktowa	!	!	!	!	!	!	!	!	!	!	!
2AA/	-a-	.	.	.	.	4F/	-de-	.	1A/	-a-	.
!	!	!	!	!	!	!LO:TX:t=P:problem=kreska pseudotaktowa	!	!	!	!	!
.	.	.	.	.	.	4E/	.	.	.	.	.
=2-	=2-	=2-	=2-	=2-	=2-	=2-	=2-	=2-	=2-	=2-	=2-
*	*	*	*lig	*	*	*	*	*	*	*	*
1BB	-mus	.	1D	-a-	.	2D/	-a-	.	.	.	.
!	!	!	!	!	!	!	!	!	!LO:TX:t=P:problem=kreska pseudotaktowa	!	!
.	.	.	.	.	.	2G/	.	.	2G/	.	.
2AA/	.	.	1A	.	.	2E/	.	.	2.c/	.	.
2.AA/	.	.	.	.	.	1A\	.	.	.	.	.
.	.	.	.	.	.	.	.	.	4d/	.	.
*	*	*	*Xlig	*	*	*	*	*	*	*	*
=3-	=3-	=3-	=3-	=3-	=3-	=3-	=3-	=3-	=3-	=3-	=3-
!	!	!	!	!	!	!	!	!	!LO:TX:t=P:problem=kreska pseudotaktowa	!	!
.	.	.	1c	-mus	.	.	.	.	1e	.	.
4BB/	.	.	.	.	.	.	.	.	.	.	.
!LO:TX:t=P:problem=kreska pseudotaktowa	!	!	!	!	!	!LO:TX:t=P:problem=kreska pseudotaktowa	!	!	!	!	!
2C/	.	.	.	.	.	2G/	.	.	.	.	.
!	!	!	!LO:TX:t=P:problem=kreska pseudotaktowa	!	!	!	!	!	!	!	!
2D/	.	.	1A	.	.	2d\	.	.	2f\	.	.
2E/	.	.	.	.	.	4c\	-mus	.	1e\	.	.
.	.	.	.	.	.	4B\	.	.	.	.	.
=4-	=4-	=4-	=4-	=4-	=4-	=4-	=4-	=4-	=4-	=4-	=4-
!LO:TX:t=P:problem=kreska pseudotaktowa	!	!	!	!	!	!	!	!	!	!	!
1F	.	.	1A	.	.	2A/	.	.	.	.	.
!	!	!	!	!	!	!	!	!	!LO:TX:t=P:problem=kreska pseudotaktowa	!	!
.	.	.	.	.	.	1d	.	.	2d/	.	.
2E/	.	.	1G	om-	.	.	.	.	2e\	-mŭs	.
!	!	!	!	!	!	!LO:TX:t=P:problem=kreska pseudotaktowa	!	!	!	!	!
2E/	.	.	.	.	.	2c\	om-	.	1g\	om-	.
=5-	=5-	=5-	=5-	=5-	=5-	=5-	=5-	=5-	=5-	=5-	=5-
*lig	*	*	*lig	*	*	*	*	*	*	*	*
1D	om-	.	1A	-nes	.	2.d\	-nes	.	.	.	.
!	!	!	!	!	!	!	!	!	!LO:TX:t=P:problem=kreska pseudotaktowa	!	!
!	!	!	!	!	!	!	!	!	!LO:SIC:v:s=2f#:t=?	!	!
.	.	.	.	.	.	.	.	.	2f\	.	.
.	.	.	.	.	.	4c\	.	.	.	.	.
*custos:D	*	*	*	*	*	*custos:c	*	*	*	*	*
!	!	!	!LO:TX:t=P:problem=kreska pseudotaktowa	!	!	!	!	!	!	!	!
!LO:TX:t=P:problem=kreska pseudotaktowa	!	!	!	!	!	!	!	!	!	!	!
1E	.	.	1G	.	.	2B/	.	.	2g\	-nes	.
!	!	!	!	!	!	!LO:LB:g=original	!	!	!	!	!
.	.	.	.	.	.	1c\	.	.	2e\	.	.
*Xlig	*	*	*Xlig	*	*	*	*	*	*	*	*
=6-	=6-	=6-	=6-	=6-	=6-	=6-	=6-	=6-	=6-	=6-	=6-
*	*	*	*lig	*	*	*	*	*	*	*	*
*	*	*	*	*	*	*	*	*	*custos:e	*	*
!LO:LB:g=original	!	!	!	!	!	!	!	!	!LO:TX:t=P:problem=kreska pseudotaktowa	!	!
1D	-nes	.	1F	in	.	.	.	.	1f	.	.
!	!	!	!	!	!	!LO:TX:t=P:problem=kreska pseudotaktowa	!	!	!	!	!
.	.	.	.	.	.	2B/	.	.	.	.	.
!	!	!	!LO:TX:t=P:problem=kreska pseudotaktowa	!	!	!	!	!	!LO:LB:g=original	!	!
2.C/	in	.	1G	.	.	1c	.	.	2.e\	in	.
!LO:TX:t=P:problem=kreska pseudotaktowa	!	!	!	!	!	!	!	!	!	!	!
4D/	.	.	.	.	.	.	.	.	4f\	.	.
!	!	!	!	!	!	!	!	!	!LO:TX:t=P:problem=kreska pseudotaktowa	!	!
*	*	*	*Xlig	*	*	*	*	*	*	*	*
=7-	=7-	=7-	=7-	=7-	=7-	=7-	=7-	=7-	=7-	=7-	=7-
!	!	!	!	!	!	!LO:TX:t=P:problem=kreska pseudotaktowa	!	!	!	!	!
2E/	.	.	1G	do-	.	1B	.	.	2g\	.	.
4D/	.	.	.	.	.	.	.	.	4f\	.	.
!	!	!	!	!	!	!	!	!	!LO:TX:t=P:problem=kreska pseudotaktowa	!	!
4C/	.	.	.	.	.	.	.	.	4e\	.	.
*	*	*	*lig	*	*	*	*	*	*	*	*
!LO:TX:t=P:problem=kreska pseudotaktowa	!	!	!	!	!	!	!	!	!	!	!
1BB	.	.	1B	-mi-	.	2r	.	.	1d	.	.
.	.	.	.	.	.	2G/	in	.	.	.	.
=8-	=8-	=8-	=8-	=8-	=8-	=8-	=8-	=8-	=8-	=8-	=8-
2AA/	.	.	1c	.	.	2.A/	do-	.	2.c/	do-	.
2.A\	do-	.	.	.	.	.	.	.	.	.	.
.	.	.	.	.	.	4B\	.	.	4d/	.	.
!	!	!	!	!	!	!LO:TX:t=P:problem=kreska pseudotaktowa	!	!	!LO:TX:t=P:problem=kreska pseudotaktowa	!	!
*	*	*	*Xlig	*	*	*	*	*	*	*	*
.	.	.	1A	.	.	2c\	.	.	2e\	.	.
4G\	-mi-	.	.	.	.	.	.	.	.	.	.
4F\	.	.	.	.	.	2.d\	.	.	1f\	.	.
!LO:TX:t=P:problem=kreska pseudotaktowa	!	!	!	!	!	!	!	!	!	!	!
4E\	.	.	.	.	.	.	.	.	.	.	.
=9-	=9-	=9-	=9-	=9-	=9-	=9-	=9-	=9-	=9-	=9-	=9-
*	*	*	*lig	*	*	*	*	*	*	*	*
2D/	.	.	1A	.	.	.	.	.	.	.	.
.	.	.	.	.	.	4A/	.	.	.	.	.
!	!	!	!	!	!	!	!	!	!LO:TX:t=P:problem=kreska pseudotaktowa	!	!
2F\	.	.	.	.	.	1d	.	.	2d\	.	.
1E	.	.	1G	.	.	.	.	.	2e\	.	.
.	.	.	.	.	.	2c\	-mi-	.	1g\	-mi-	.
*	*	*	*Xlig	*	*	*	*	*	*	*	*
=10-	=10-	=10-	=10-	=10-	=10-	=10-	=10-	=10-	=10-	=10-	=10-
!	!	!	!	!	!	!LO:TX:t=P:problem=kreska pseudotaktowa	!	!	!	!	!
!LO:TX:t=P:problem=kreska pseudotaktowa	!	!	!	!	!	!LO:N:vis=0	!	!	!	!	!
1D	-no	.	1A	.	.	1d	-no	.	.	.	.
!	!	!	!	!	!	!	!	!	!LO:SIC:v:s=2f#\:t=?	!	!
.	.	.	.	.	.	.	.	.	2f\	-no,	.
*	*	*	*custos:A	*	*	*	*	*	*	*	*
!	!	!	!	!	!	!LO:N:vis=2	!	!	!LO:TX:t=P:problem=kreska pseudotaktowa	!	!
2r	.	.	1B	.	.	1r	.	.	1g	.	.
*	*ij	*	*	*	*	*	*	*	*	*	*
1G\	in	.	.	.	.	.	.	.	.	.	.
=11-	=11-	=11-	=11-	=11-	=11-	=11-	=11-	=11-	=11-	=11-	=11-
*	*	*	*lig	*	*	*	*	*	*	*ij	*
!	!	!	!LO:LB:g=original	!	!	!	!	!	!LO:LB:g=original	!	!
.	.	.	1A	.	.	2.d\	.	.	2r	.	.
!LO:TX:t=P:problem=kreska pseudotaktowa	!	!	!	!	!	!	!	!	!	!	!
2F\	.	.	.	.	.	.	.	.	2a\	in	.
.	.	.	.	.	.	4c\	.	.	.	.	.
4G\	do-	.	1B	.	.	4B/	.	.	2.g\	do-	.
4F\	.	.	.	.	.	4A/	.	.	.	.	.
4E/	.	.	.	.	.	2G/	.	.	.	.	.
!LO:TX:t=P:problem=kreska pseudotaktowa	!	!	!	!	!	!	!	!	!	!	!
4D/	.	.	.	.	.	.	.	.	4f\	.	.
!	!	!	!	!	!	!LO:TX:t=P:problem=kreska pseudotaktowa	!	!	!LO:TX:t=P:problem=kreska pseudotaktowa	!	!
*	*	*	*Xlig	*	*	*	*	*	*	*	*
=12-	=12-	=12-	=12-	=12-	=12-	=12-	=12-	=12-	=12-	=12-	=12-
*	*	*	*lig	*	*	*	*	*	*	*	*
*custos:C	*	*	*	*	*	*	*	*	*	*	*
!	!	!	!	!	!	!LO:N:vis=2	!	!	!	!	!
2C/	.	.	1c	-no	.	1G	.	.	2e\	.	.
!LO:LB:g=original	!	!	!	!	!	!	!	!	!	!	!
!LO:TX:t=P:problem=kreska pseudotaktowa	!	!	!	!	!	!	!	!	!	!	!
2C/	-mi-	.	.	.	.	.	.	.	2e\	-mi-	.
*	*	*	*	*	*	*	*	*	*custos:f	*	*
1D	.	.	1A	.	.	2.F/	.	.	2d/	-no	.
*	*	*	*	*	*	*	*	*	*	*Xij	*
!	!	!	!	!	!	!	!	!	!LO:LB:g=original	!	!
!	!	!	!	!	!	!	!	!	!LO:TX:t=P:problem=kreska pseudotaktowa	!	!
.	.	.	.	.	.	.	.	.	2.f\	di-	.
.	.	.	.	.	.	4E/	.	.	.	.	.
*	*	*	*	*	*	*custos:D	*	*	*	*	*
*	*	*	*Xlig	*	*	*	*	*	*	*	*
=13-	=13-	=13-	=13-	=13-	=13-	=13-	=13-	=13-	=13-	=13-	=13-
!LO:TX:t=P:problem=kreska pseudotaktowa	!	!	!LO:TX:t=P:problem=kreska pseudotaktowa	!	!	!LO:LB:g=original	!	!	!	!	!
0D	-no	.	1A	di-	.	2D,</	.	.	.	.	.
*	*Xij	*	*	*	*	*	*	*	*	*	*
.	.	.	.	.	.	.	.	.	4e\	-em	.
.	.	.	.	.	.	2d\	di-	.	4d\	.	.
!	!	!	!	!	!	!	!	!	!LO:TX:t=P:problem=kreska pseudotaktowa	!	!
.	.	.	.	.	.	.	.	.	4c\	.	.
!	!	!	!	!	!	!LO:TX:t=P:problem=kreska pseudotaktowa	!	!	!	!	!
.	.	.	1F	-em	.	1A	.	.	1d	.	.
=14-	=14-	=14-	=14-	=14-	=14-	=14-	=14-	=14-	=14-	=14-	=14-
2GG/	di-	.	1G	.	.	2B/	-em	.	2d\	fe-	.
!LO:TX:t=P:problem=kreska pseudotaktowa	!	!	!	!	!	!	!	!	!LO:TX:t=P:problem=kreska pseudotaktowa	!	!
2C/	-em	.	.	.	.	2c\	feſ-	.	2e\	.	.
*	*	*	*lig	*	*	*	*	*	*	*	*
2BB/	feſ-	.	1G	feſ-	.	2B/	-tum	.	2d\	.	.
!LO:TX:t=P:problem=kreska pseudotaktowa	!	!	!	!	!	!LO:TX:t=P:problem=kreska pseudotaktowa	!	!	!	!	!
2C/	.	.	.	.	.	2E/	.	.	1c\	.	.
=15-	=15-	=15-	=15-	=15-	=15-	=15-	=15-	=15-	=15-	=15-	=15-
1D	-tum	.	1F	.	.	2F/	.	.	.	.	.
.	.	.	.	.	.	2D/	.	.	2B/	.	.
!	!	!	!	!	!	!	!	!	!LO:TX:t=P:problem=kreska pseudotaktowa	!	!
*	*	*	*Xlig	*	*	*	*	*	*	*	*
*	*	*	*lig	*	*	*	*	*	*	*	*
2C/	.	.	1E	-tum	.	2E/	cae-	.	1c	-ſtum	.
!LO:TX:t=P:problem=kreska pseudotaktowa	!	!	!	!	!	!LO:TX:t=P:problem=kreska pseudotaktowa	!	!	!	!	!
2AA/	.	.	.	.	.	2A/	-le-	.	.	.	.
=16-	=16-	=16-	=16-	=16-	=16-	=16-	=16-	=16-	=16-	=16-	=16-
!	!	!	!LO:TX:t=P:problem=kreska pseudotaktowa	!	!	!	!	!	!	!	!
2D/	ce-	.	1F	.	.	2.A/	-bran-	.	2r	.	.
!	!	!	!	!	!	!	!	!	!LO:TX:t=P:problem=kreska pseudotaktowa	!	!
2.D/	-le-	.	.	.	.	.	.	.	2A/	c(a)e-	.
.	.	.	.	.	.	4G/	.	.	.	.	.
*	*	*	*Xlig	*	*	*	*	*	*	*	*
*	*	*	*lig	*	*	*	*	*	*	*	*
.	.	.	1D	ce-	.	4F/	-tes	.	2d/	-le-	.
4C/	.	.	.	.	.	4E/	.	.	.	.	.
4BB/	.	.	.	.	.	2D/	.	.	2.d/	-bran-	.
!LO:TX:t=P:problem=kreska pseudotaktowa	!	!	!	!	!	!	!	!	!	!	!
4AA/	.	.	.	.	.	.	.	.	.	.	.
=17-	=17-	=17-	=17-	=17-	=17-	=17-	=17-	=17-	=17-	=17-	=17-
!	!	!	!	!	!	!LO:TX:t=P:problem=kreska pseudotaktowa	!	!	!	!	!
2.GG/	-bran-	.	1G	.	.	1D	.	.	.	.	.
.	.	.	.	.	.	.	.	.	4c/	.	.
.	.	.	.	.	.	.	.	.	4B/	.	.
!	!	!	!	!	!	!	!	!	!LO:TX:t=P:problem=kreska pseudotaktowa	!	!
4AA/	.	.	.	.	.	.	.	.	4A/	.	.
*	*	*	*Xlig	*	*	*	*	*	*	*	*
*	*	*	*lig	*	*	*	*	*	*	*	*
2BB/	.	.	1G	-le-	.	0r	.	.	2G/	.	.
!LO:TX:t=P:problem=kreska pseudotaktowa	!	!	!	!	!	!	!	!	!	!	!
2C/	-tes	.	.	.	.	.	.	.	1c\	.	.
=18-	=18-	=18-	=18-	=18-	=18-	=18-	=18-	=18-	=18-	=18-	=18-
1D	.	.	1F	.	.	.	.	.	.	.	.
.	.	.	.	.	.	.	.	.	2B/	.	.
*	*	*	*Xlig	*	*	*	*	*	*	*	*
*	*	*	*lig	*	*	*	*ij	*	*	*	*
!	!	!	!	!	!	!	!	!	!LO:TX:t=P:problem=kreska pseudotaktowa	!	!
2C/	.	.	1E	.	.	2E/	cae-	.	1c	-tes,	.
!LO:TX:t=P:problem=kreska pseudotaktowa	!	!	!	!	!	!LO:TX:t=P:problem=kreska pseudotaktowa	!	!	!	!	!
2AA/	.	.	.	.	.	2A/	-le-	.	.	.	.
=19-	=19-	=19-	=19-	=19-	=19-	=19-	=19-	=19-	=19-	=19-	=19-
*	*ij	*	*	*	*	*	*	*	*	*ij	*
*	*	*	*	*	*	*	*	*	*custos:A	*	*
!LO:LB:g=original	!	!	!	!	!	!	!	!	!	!	!
2D/	ce-	.	1F	.	.	2.A/	-bran-	.	2r	.	.
!	!	!	!	!	!	!	!	!	!LO:TX:t=P:problem=kreska pseudotaktowa	!	!
2.D/	-le-	.	.	.	.	.	.	.	2A/	cae-	.
.	.	.	.	.	.	4G/	.	.	.	.	.
*	*	*	*Xlig	*	*	*	*	*	*	*	*
.	.	.	1D	-bran-	.	4F/	.	.	2d/	-le-	.
*	*	*	*	*	*	*custos:D	*	*	*	*	*
4C/	.	.	.	.	.	4E/	.	.	.	.	.
!	!	!	!	!	!	!LO:TX:t=P:problem=kreska pseudotaktowa	!	!	!	!	!
!	!	!	!	!	!	!LO:LB:g=original	!	!	!	!	!
4BB/	.	.	.	.	.	2D/	-tes	.	1d\	-bran-	.
!LO:TX:t=P:problem=kreska pseudotaktowa	!	!	!	!	!	!	!	!	!	!	!
4AA/	.	.	.	.	.	.	.	.	.	.	.
=20-	=20-	=20-	=20-	=20-	=20-	=20-	=20-	=20-	=20-	=20-	=20-
*	*	*	*lig	*	*	*	*Xij	*	*	*	*
4GG/	-bran-	.	1G	-tes	.	2.D/	in	.	.	.	.
4AA/	.	.	.	.	.	.	.	.	.	.	.
4BB/	.	.	.	.	.	.	.	.	4c/	.	.
!LO:TX:t=P:problem=kreska pseudotaktowa	!	!	!	!	!	!	!	!	!LO:TX:t=P:problem=kreska pseudotaktowa	!	!
4C/	.	.	.	.	.	4E/	.	.	4B/	.	.
!	!	!	!LO:TX:t=P:problem=kreska pseudotaktowa	!	!	!	!	!	!	!	!
1D	.	.	1F	.	.	4F/	.	.	1A	.	.
.	.	.	.	.	.	4G/	.	.	.	.	.
.	.	.	.	.	.	2.A/	.	.	.	.	.
*	*	*	*Xlig	*	*	*	*	*	*	*	*
=21-	=21-	=21-	=21-	=21-	=21-	=21-	=21-	=21-	=21-	=21-	=21-
!	!	!	!LO:TX:t=P:problem=kreska pseudotaktowa	!	!	!	!	!	!	!	!
!LO:TX:t=P:problem=kreska pseudotaktowa	!	!	!LO:TX:t=P:problem=przeróbka tekstu z "in" na "ſub"	!	!	!	!	!	!	!	!
1D	-tes	.	1F	in	.	.	.	.	2A/	-tes	.
*	*Xij	*	*	*	*	*	*	*	*	*Xij	*
.	.	.	.	.	.	4D/	.	.	.	.	.
!	!	!	!	!	!	!	!	!	!LO:TX:t=P:problem=kreska pseudotaktowa	!	!
.	.	.	.	.	.	2.d\	.	.	2a\	in	.
0r	.	.	1G	ho-	.	.	.	.	2g\	ho-	.
.	.	.	.	.	.	4c\	ho-	.	.	.	.
.	.	.	.	.	.	1c\	-no-	.	4f\	.	.
.	.	.	.	.	.	.	.	.	4e\	.	.
=22-	=22-	=22-	=22-	=22-	=22-	=22-	=22-	=22-	=22-	=22-	=22-
.	.	.	1G	-no-	.	.	.	.	2d\	.	.
!	!	!	!	!	!	!LO:TX:t=P:problem=kreska pseudotaktowa	!	!	!	!	!
.	.	.	.	.	.	2B/	-rem	.	2d\	-no-	.
*	*	*	*lig	*	*	*	*ij	*	*	*	*
!	!	!	!	!	!	!	!	!	!LO:TX:t=P:problem=kreska pseudotaktowa	!	!
2r	.	.	1A	.	.	2c\	in	.	1c	-rem	.
!LO:TX:t=P:problem=kreska pseudotaktowa	!	!	!	!	!	!	!	!	!	!	!
2F\	in	.	.	.	.	2A/	ho-	.	.	.	.
=23-	=23-	=23-	=23-	=23-	=23-	=23-	=23-	=23-	=23-	=23-	=23-
*	*	*	*	*	*	*	*	*	*	*ij	*
2E\	.	.	1c	.	.	2G/	.	.	2r	.	.
!LO:TX:t=P:problem=kreska pseudotaktowa	!	!	!	!	!	!	!	!	!	!	!
2C/	ho-	.	.	.	.	2E/	.	.	2g\	in	.
!	!	!	!	!	!	!LO:TX:t=P:problem=kreska pseudotaktowa	!	!	!	!	!
*	*	*	*Xlig	*	*	*	*	*	*	*	*
2D/	-no-	.	1A	.	.	2F/	-no-	.	2f\	ho-	.
2E\	-rem	.	.	.	.	2G/	.	.	1e\	-no-	.
=24-	=24-	=24-	=24-	=24-	=24-	=24-	=24-	=24-	=24-	=24-	=24-
*	*	*	*lig	*	*	*	*	*	*	*	*
!LO:TX:t=P:problem=kreska pseudotaktowa	!	!	!	!	!	!	!	!	!	!	!
1F	Ma-	.	1A	-re	.	2.A/	.	.	.	.	.
!	!	!	!	!	!	!	!	!	!LO:TX:t=P:problem=kreska pseudotaktowa	!	!
.	.	.	.	.	.	.	.	.	2d/	.	.
!	!	!	!	!	!	!LO:TX:t=P:problem=kreska pseudotaktowa	!	!	!	!	!
.	.	.	.	.	.	4B\	.	.	.	.	.
*	*	*	*custos:F	*	*	*	*	*	*	*	*
2E\	-ri-	.	1G	.	.	2c\	.	.	1e	-rem	.
2E\	-e	.	.	.	.	2B\	.	.	.	.	.
*	*	*	*Xlig	*	*	*	*	*	*	*Xij	*
=25-	=25-	=25-	=25-	=25-	=25-	=25-	=25-	=25-	=25-	=25-	=25-
*	*	*	*	*	*	*custos:c	*	*	*	*	*
!	!	!	!LO:LB:g=original	!	!	!	!	!	!	!	!
2.A\	.	.	1F	Ma-	.	2A\	.	.	2.c/	Ma-	.
!	!	!	!	!	!	!LO:TX:t=P:problem=kreska pseudotaktowa	!	!	!	!	!
!	!	!	!	!	!	!LO:PB:g=original	!	!	!	!	!
.	.	.	.	.	.	2c\	-rem	.	.	.	.
*	*	*	*	*	*	*	*Xij	*	*	*	*
*	*	*	*	*	*	*	*	*	*custos:A	*	*
!LO:TX:t=P:problem=kreska pseudotaktowa	!	!	!	!	!	!	!	!	!LO:TX:t=P:problem=kreska pseudotaktowa	!	!
4G\	.	.	.	.	.	.	.	.	4B/	.	.
!	!	!	!	!	!	!	!	!	!LO:PB:g=original	!	!
4F\	.	.	1A	-ri-	.	1c	Ma-	.	2A/	-ri-	.
*custos:F	*	*	*	*	*	*	*	*	*	*	*
4E\	.	.	.	.	.	.	.	.	.	.	.
!LO:LB:g=original	!	!	!	!	!	!	!	!	!	!	!
1F\	.	.	.	.	.	.	.	.	1a\	-e	.
=26-	=26-	=26-	=26-	=26-	=26-	=26-	=26-	=26-	=26-	=26-	=26-
*	*	*	*lig	*	*	*	*	*	*	*	*
.	.	.	1A	-e	.	4d\	-ri-	.	.	.	.
.	.	.	.	.	.	4e\	-e	.	.	.	.
4E/	.	.	.	.	.	2f\	.	.	4g\	.	.
!LO:TX:t=P:problem=kreska pseudotaktowa	!	!	!	!	!	!	!	!	!LO:TX:t=P:problem=kreska pseudotaktowa	!	!
4D/	.	.	.	.	.	.	.	.	4f\	.	.
1E	.	.	1c	.	.	1e	.	.	1g	.	.
*	*	*	*Xlig	*	*	*	*	*	*	*	*
=27-	=27-	=27-	=27-	=27-	=27-	=27-	=27-	=27-	=27-	=27-	=27-
!	!	!	!LO:TX:t=P:problem=kreska pseudotaktowa	!	!	!LO:TX:t=P:problem=kreska pseudotaktowa	!	!	!	!	!
1D	.	.	1d	.	.	1A	.	.	2.f\	.	.
!	!	!	!	!	!	!	!	!	!LO:TX:t=P:problem=kreska pseudotaktowa	!	!
.	.	.	.	.	.	.	.	.	4e\	.	.
2.F\	vir-	.	1A	vir-	.	1r	.	.	2c/	.	.
.	.	.	.	.	.	.	.	.	1f\	vir:-	.
!LO:TX:t=P:problem=kreska pseudotaktowa	!	!	!	!	!	!	!	!	!	!	!
4E\	-gi-	.	.	.	.	.	.	.	.	.	.
=28-	=28-	=28-	=28-	=28-	=28-	=28-	=28-	=28-	=28-	=28-	=28-
*	*	*	*lig	*	*	*	*	*	*	*	*
2D/	-nis	.	1A	-gi-	.	2r	.	.	.	.	.
!	!	!	!	!	!	!	!	!	!LO:TX:t=P:problem=kreska pseudotaktowa	!	!
2C/	.	.	.	.	.	1A	vir-	.	2e/	.	.
!LO:TX:t=P:problem=# below	!	!	!	!	!	!	!	!	!	!	!
!LO:N:acc=#	!	!	!	!	!	!	!	!	!	!	!
1BBn	.	.	1B	.	.	.	.	.	1d	.	.
.	.	.	.	.	.	2G/	.	.	.	.	.
!	!	!	!	!	!	!LO:TX:t=P:problem=kreska pseudotaktowa	!	!	!	!	!
*	*	*	*Xlig	*	*	*	*	*	*	*	*
=29-	=29-	=29-	=29-	=29-	=29-	=29-	=29-	=29-	=29-	=29-	=29-
*	*	*	*lig	*	*	*	*	*	*	*	*
2.AA/	.	.	1c	.	.	2A/	-gi-	.	2c/	.	.
.	.	.	.	.	.	4G/	.	.	2.e\	.	.
!LO:TX:t=P:problem=kreska pseudotaktowa	!	!	!	!	!	!	!	!	!	!	!
4BB/	.	.	.	.	.	4F/	.	.	.	.	.
2C/	.	.	1A	.	.	2E/	.	.	.	.	.
.	.	.	.	.	.	.	.	.	4d/	.	.
2D/	.	.	.	.	.	2F/	-nis;	.	1d\	-gi-	.
!	!	!	!	!	!	!LO:TX:t=P:problem=kreska pseudotaktowa	!	!	!	!	!
*	*	*	*Xlig	*	*	*	*	*	*	*	*
=30-	=30-	=30-	=30-	=30-	=30-	=30-	=30-	=30-	=30-	=30-	=30-
!	!	!	!LO:TX:t=P:problem=kreska pseudotaktowa	!	!	!	!	!	!	!	!
1AA	.	.	1A	-nis	.	1E	.	.	.	.	.
!	!	!	!	!	!	!	!	!	!LO:TX:t=P:problem=kreska pseudotaktowa	!	!
!	!	!	!	!	!	!	!	!	!LO:SIC:v:s=2c#/:t=?	!	!
.	.	.	.	.	.	.	.	.	2c/	-nis,	.
*	*	*	*lig	*	*	*	*	*	*	*	*
!LO:TX:t=P:problem=kreska pseudotaktowa	!	!	!	!	!	!	!	!	!	!	!
1D	.	.	1F	de-	.	2D/	.	.	2d/	.	.
!	!	!	!	!	!	!LO:TX:t=P:problem=kreska pseudotaktowa	!	!	!	!	!
.	.	.	.	.	.	2A/	de	.	1f\	de	.
=31-	=31-	=31-	=31-	=31-	=31-	=31-	=31-	=31-	=31-	=31-	=31-
*lig	*	*	*	*	*	*	*	*	*	*	*
1C	de	.	1G	.	.	2.c\	.	.	.	.	.
.	.	.	.	.	.	.	.	.	2e\	.	.
.	.	.	.	.	.	4B\	cu-	.	.	.	.
*	*	*	*Xlig	*	*	*	*	*	*	*	*
*	*	*	*lig	*	*	*	*	*	*	*	*
1D	.	.	1F	-cu-	.	2A/	.	.	2d/	.	.
*	*	*	*	*	*	*custos:c	*	*	*	*	*
!	!	!	!	!	!	!LO:TX:t=P:problem=kreska pseudotaktowa	!	!	!	!	!
.	.	.	.	.	.	2B/	.	.	1f\	.	.
*Xlig	*	*	*	*	*	*	*	*	*	*	*
=32-	=32-	=32-	=32-	=32-	=32-	=32-	=32-	=32-	=32-	=32-	=32-
!	!	!	!	!	!	!LO:LB:g=original	!	!	!	!	!
1C	cu-	.	1G	.	.	1c	-ius	.	.	.	.
!	!	!	!	!	!	!	!	!	!LO:TX:t=P:problem=kreska pseudotaktowa	!	!
.	.	.	.	.	.	.	.	.	2e\	cu-	.
*	*	*	*Xlig	*	*	*	*	*	*	*	*
*	*	*	*	*	*	*	*	*	*custos:f	*	*
!LO:TX:t=P:problem=kreska pseudotaktowa	!	!	!LO:TX:t=P:problem=kreska pseudotaktowa	!	!	!	!	!	!	!	!
1D	-iŭs	.	1F	-ius	.	2A/	vi-	.	1f	-ius	.
.	.	.	.	.	.	2.d\	-ſi-	.	.	.	.
=33-	=33-	=33-	=33-	=33-	=33-	=33-	=33-	=33-	=33-	=33-	=33-
!	!	!	!	!	!	!	!	!	!LO:LB:g=original	!	!
2.D/	.	.	1F	Aſ-	.	.	.	.	2.f\	vi-	.
.	.	.	.	.	.	4c\	-ta-	.	.	.	.
!	!	!	!	!	!	!LO:TX:t=P:problem=kreska pseudotaktowa	!	!	!	!	!
.	.	.	.	.	.	2A/	-ti-	.	.	.	.
!	!	!	!	!	!	!	!	!	!LO:TX:t=P:problem=kreska pseudotaktowa	!	!
4C/	vi-	.	.	.	.	.	.	.	4e\	-ſi-	.
!LO:LB:g=original	!	!	!	!	!	!	!	!	!	!	!
2BB-X/	-ſi-	.	1F	-ſum-	.	2B-X\	-o-	.	2d/	-ta-	.
2AA/	-ta-	.	.	.	.	2c\	.	.	2c/	-ti-	.
=34-	=34-	=34-	=34-	=34-	=34-	=34-	=34-	=34-	=34-	=34-	=34-
*	*	*	*	*	*	*lig	*	*	*	*	*
1GG	-ti-	.	1G	.	.	1B-y	.	.	1d	-o-	.
!LO:TX:t=P:problem=kreska pseudotaktowa	!	!	!	!	!	!LO:TX:t=P:problem=kreska pseudotaktowa	!	!	!	!	!
1C	-o-	.	1G	-pti-	.	1c	.	.	1e	-ne,	.
*	*	*	*	*	*	*Xlig	*	*	*	*	*
=35-	=35-	=35-	=35-	=35-	=35-	=35-	=35-	=35-	=35-	=35-	=35-
*	*	*	*lig	*	*	*	*	*	*	*	*
!	!	!	!	!	!	!	!	!	!LO:TX:t=P:problem=kreska pseudotaktowa	!	!
2FF/	-ne	.	1A	-o-	.	2A/	-ne	.	1c	.	.
*	*ij	*	*	*	*	*	*	*	*	*	*
2F\	vi-	.	.	.	.	2.c\	.	.	.	.	.
2E\	-ſi-	.	1c	.	.	.	.	.	2r	.	.
.	.	.	.	.	.	4d\	.	.	.	.	.
*	*	*	*	*	*	*	*	*	*	*ij	*
2C/	-ta-	.	.	.	.	1e\	.	.	1g\	de	.
*	*	*	*Xlig	*	*	*	*	*	*	*	*
=36-	=36-	=36-	=36-	=36-	=36-	=36-	=36-	=36-	=36-	=36-	=36-
*lig	*	*	*	*	*	*	*	*	*	*	*
1D	-ti-	.	1A	.	.	.	.	.	.	.	.
!	!	!	!	!	!	!	!	!	!LO:TX:t=P:problem=kreska pseudotaktowa	!	!
.	.	.	.	.	.	1d	.	.	2f\	cu-	.
*	*	*	*lig	*	*	*	*	*	*	*	*
1E	-o-	.	1G	-ne	.	.	.	.	2e\	-ius	.
*Xlig	*	*	*	*	*	*	*	*	*	*	*
!	!	!	!	!	!	!LO:TX:t=P:problem=kreska pseudotaktowa	!	!	!	!	!
.	.	.	.	.	.	2c\	.	.	1g\	vi-	.
=37-	=37-	=37-	=37-	=37-	=37-	=37-	=37-	=37-	=37-	=37-	=37-
*	*	*	*custos:B	*	*	*	*	*	*	*	*
!LO:TX:t=P:problem=kreska pseudotaktowa	!	!	!	!	!	!	!	!	!	!	!
1D	-ne	.	1A	.	.	1d	.	.	.	.	.
!	!	!	!	!	!	!	!	!	!LO:SIC:v:s=2f#\:t=?	!	!
.	.	.	.	.	.	.	.	.	2f\	-ſi-	.
!	!	!	!	!	!	!	!	!	!LO:TX:t=P:problem=kreska pseudotaktowa	!	!
*	*Xij	*	*Xlig	*	*	*	*	*	*	*	*
!	!	!	!LO:TX:t=P:problem=kreska pseudotaktowa	!	!	!	!	!	!	!	!
!	!	!	!LO:LB:g=original	!	!	!	!	!	!	!	!
2r	.	.	1G	.	.	2G/	.	.	2g\	-ta-	.
2C/	gau-	.	.	.	.	1c\	gau-	.	2e\	-ti-	.
=38-	=38-	=38-	=38-	=38-	=38-	=38-	=38-	=38-	=38-	=38-	=38-
*	*	*	*lig	*	*	*	*	*	*lig	*	*
1D	.	.	1F	au-	.	.	.	.	1f	-o-	.
!	!	!	!	!	!	!LO:TX:t=P:problem=kreska pseudotaktowa	!	!	!	!	!
.	.	.	.	.	.	2Bny/	.	.	.	.	.
!LO:TX:t=P:problem=kreska pseudotaktowa	!	!	!	!	!	!	!	!	!LO:TX:t=P:problem=kreska pseudotaktowa	!	!
1C	-dent	.	1G	.	.	2.c\	-dent	.	1e	.	.
.	.	.	.	.	.	4B\	.	.	.	.	.
!	!	!	!	!	!	!LO:TX:t=P:problem=kreska pseudotaktowa	!	!	!	!	!
*	*	*	*Xlig	*	*	*	*	*	*Xlig	*	*
=39-	=39-	=39-	=39-	=39-	=39-	=39-	=39-	=39-	=39-	=39-	=39-
!	!	!	!LO:TX:t=P:problem=kreska pseudotaktowa	!	!	!	!	!	!	!	!
2.D/	.	.	1F	-dent	.	4A/	an-	.	2d/	-ne	.
*	*	*	*	*	*	*	*	*	*	*Xij	*
*	*	*	*	*	*	*custos:F	*	*	*	*	*
.	.	.	.	.	.	4G/	.	.	.	.	.
!	!	!	!	!	!	!LO:LB:g=original	!	!	!	!	!
.	.	.	.	.	.	4F/	.	.	1d	gau-	.
!	!	!	!	!	!	!LO:TX:t=P:problem=kreska pseudotaktowa	!	!	!	!	!
4C/	an-	.	.	.	.	4E/	.	.	.	.	.
*	*	*	*lig	*	*	*	*	*	*	*	*
2BB-X/	.	.	1F	.	.	4D/	.	.	.	.	.
.	.	.	.	.	.	4C/	.	.	.	.	.
!LO:TX:t=P:problem=kreska pseudotaktowa	!	!	!	!	!	!	!	!	!LO:TX:t=P:problem=kreska pseudotaktowa	!	!
2AA/	.	.	.	.	.	1F/	.	.	2c/	.	.
=40-	=40-	=40-	=40-	=40-	=40-	=40-	=40-	=40-	=40-	=40-	=40-
1GG	-ge-	.	1G	.	.	.	.	.	1B-X	-dent	.
.	.	.	.	.	.	2E/	.	.	.	.	.
*	*	*	*Xlig	*	*	*	*	*	*	*	*
*	*	*	*lig	*	*	*	*	*	*	*	*
2FF/	-li	.	1A	an-	.	1F	-ge-	.	2A/	an-	.
*	*ij	*	*	*	*	*	*	*	*	*	*
*custos:E	*	*	*	*	*	*	*	*	*custos:c	*	*
1F\	gau-	.	.	.	.	.	.	.	1c\	.	.
=41-	=41-	=41-	=41-	=41-	=41-	=41-	=41-	=41-	=41-	=41-	=41-
!	!	!	!	!	!	!LO:TX:t=P:problem=kreska pseudotaktowa	!	!	!	!	!
.	.	.	1G	.	.	1C	-li	.	.	.	.
!LO:TX:t=P:problem=kreska pseudotaktowa	!	!	!	!	!	!	!	!	!	!	!
!LO:LB:g=original	!	!	!	!	!	!	!	!	!LO:LB:g=original	!	!
2E\	.	.	.	.	.	.	.	.	2c/	-ge-	.
*	*	*	*Xlig	*	*	*	*ij	*	*	*	*
!	!	!	!	!	!	!	!	!	!LO:TX:t=P:problem=kreska pseudotaktowa	!	!
1F	-dent	.	1A	-ge-	.	2r	.	.	1c	-li,	.
.	.	.	.	.	.	1F/	gau-	.	.	.	.
=42-	=42-	=42-	=42-	=42-	=42-	=42-	=42-	=42-	=42-	=42-	=42-
*lig	*	*	*	*	*	*	*	*	*	*ij	*
1C	an-	.	1G	.	.	.	.	.	2r	.	.
!	!	!	!	!	!	!LO:TX:t=P:problem=kreska pseudotaktowa	!	!	!	!	!
.	.	.	.	.	.	2E/	-dent	.	1c	an-	.
!LO:TX:t=P:problem=kreska pseudotaktowa	!	!	!	!	!	!	!	!	!	!	!
1D	.	.	1F	.	.	1F	an-	.	.	.	.
.	.	.	.	.	.	.	.	.	2Bny/	-ge-	.
*Xlig	*	*	*	*	*	*	*	*	*	*	*
=43-	=43-	=43-	=43-	=43-	=43-	=43-	=43-	=43-	=43-	=43-	=43-
!	!	!	!	!	!	!LO:TX:t=P:problem=kreska pseudotaktowa	!	!	!LO:TX:t=P:problem=kreska pseudotaktowa	!	!
1C	-ge-	.	1E	.	.	1G	.	.	0c	-li	.
*	*	*	*lig	*	*	*	*	*	*	*Xij	*
2FF/	-li	.	1F	.	.	2A/	-ge-	.	.	.	.
1F\	gau-	.	.	.	.	2F/	.	.	.	.	.
=44-	=44-	=44-	=44-	=44-	=44-	=44-	=44-	=44-	=44-	=44-	=44-
!	!	!	!LO:TX:t=P:problem=kreska pseudotaktowa	!	!	!LO:TX:t=P:problem=kreska pseudotaktowa	!	!	!	!	!
.	.	.	1G	.	.	1C	-li	.	2r	.	.
!LO:TX:t=P:problem=kreska pseudotaktowa	!	!	!	!	!	!	!	!	!	!	!
2E\	.	.	.	.	.	.	.	.	2c/	.	.
*	*	*	*Xlig	*	*	*	*Xij	*	*	*	*
*	*	*	*lig	*	*	*	*	*	*	*	*
1D	-dent	.	1F	.	.	2r	.	.	2d\	.	.
!	!	!	!	!	!	!	!	!	!LO:TX:t=P:problem=kreska pseudotaktowa	!	!
!	!	!	!	!	!	!	!	!	!LO:TX:t=P:problem=poprawka wysokości	!	!
.	.	.	.	.	.	2D/	et	.	2f\	.	.
=45-	=45-	=45-	=45-	=45-	=45-	=45-	=45-	=45-	=45-	=45-	=45-
2C/	an-	.	1G	.	.	2E/	col-	.	2e\	.	.
2D/	.	.	.	.	.	2F/	.	.	1d	.	.
!	!	!	!	!	!	!LO:TX:t=P:problem=kreska pseudotaktowa	!	!	!	!	!
*	*	*	*Xlig	*	*	*	*	*	*	*	*
*	*	*	*lig	*	*	*	*	*	*	*	*
!LO:TX:t=P:problem=kreska pseudotaktowa	!	!	!	!	!	!	!	!	!	!	!
1E	-ge-	.	1G	-li	.	2.G/	-lau-	.	.	.	.
!	!	!	!	!	!	!	!	!	!LO:TX:t=P:problem=kreska pseudotaktowa	!	!
.	.	.	.	.	.	.	.	.	2c/	.	.
.	.	.	.	.	.	4A\	.	.	.	.	.
=46-	=46-	=46-	=46-	=46-	=46-	=46-	=46-	=46-	=46-	=46-	=46-
!LO:TX:t=P:problem=kreska pseudotaktowa	!	!	!LO:TX:t=P:problem=kreska pseudotaktowa	!	!	!	!	!	!	!	!
0D	-li	.	1F	.	.	2B-X\	-dant	.	2d/	.	.
.	.	.	.	.	.	4A/	.	.	2d/	.	.
*	*	*	*	*	*	*custos:A	*	*	*	*	*
!	!	!	!	!	!	!LO:TX:t=P:problem=kreska pseudotaktowa	!	!	!	!	!
.	.	.	.	.	.	4G/	.	.	.	.	.
*	*Xij	*	*Xlig	*	*	*	*	*	*	*	*
!	!	!	!LO:TX:t=P:problem=kreska pseudotaktowa	!	!	!	!	!	!	!	!
.	.	.	1F	et	.	2A/	.	.	1a	et	.
*	*	*	*	*	*	*	*ij	*	*	*	*
.	.	.	.	.	.	2.d\	et	.	.	.	.
=47-	=47-	=47-	=47-	=47-	=47-	=47-	=47-	=47-	=47-	=47-	=47-
0r	.	.	1G	col-	.	.	.	.	2g\	col-	.
.	.	.	.	.	.	4c\	.	.	.	.	.
.	.	.	.	.	.	1c	col-	.	4f\	-lau-	.
!	!	!	!	!	!	!	!	!	!LO:TX:t=P:problem=kreska pseudotaktowa	!	!
.	.	.	.	.	.	.	.	.	4e\	.	.
*	*	*	*lig	*	*	*	*	*	*	*	*
.	.	.	1G	-lau-	.	.	.	.	1d	.	.
!	!	!	!	!	!	!LO:TX:t=P:problem=kreska pseudotaktowa	!	!	!	!	!
.	.	.	.	.	.	2Bny\	.	.	.	.	.
=48-	=48-	=48-	=48-	=48-	=48-	=48-	=48-	=48-	=48-	=48-	=48-
!	!	!	!	!	!	!	!	!	!LO:TX:t=P:problem=kreska pseudotaktowa	!	!
2r	.	.	1A	.	.	2c\	.	.	1c	-dant	.
2F\	et	.	.	.	.	2A/	.	.	.	.	.
*	*	*	*Xlig	*	*	*	*	*	*	*	*
*	*	*	*lig	*	*	*	*	*	*	*ij	*
*	*	*	*	*	*	*	*	*	*custos:g	*	*
2E\	.	.	1c	.	.	2G/	.	.	2r	.	.
!	!	!	!	!	!	!	!	!	!LO:LB:g=original	!	!
!LO:TX:t=P:problem=kreska pseudotaktowa	!	!	!	!	!	!LO:TX:t=P:problem=kreska pseudotaktowa	!	!	!LO:TX:t=P:problem=kreska pseudotaktowa	!	!
2C/	col-	.	.	.	.	2E/	.	.	2g\	et	.
=49-	=49-	=49-	=49-	=49-	=49-	=49-	=49-	=49-	=49-	=49-	=49-
2D/	-lau-	.	1A	.	.	2F/	.	.	2f\	col-	.
!	!	!	!	!	!	!LO:TX:t=P:problem=kreska pseudotaktowa	!	!	!	!	!
2E\	.	.	.	.	.	2G/	.	.	1e	-lau-	.
*	*	*	*Xlig	*	*	*	*	*	*	*	*
*	*	*	*lig	*	*	*	*	*	*	*	*
1F	-dant	.	1A	-dant	.	2.A/	-lau-	.	.	.	.
.	.	.	.	.	.	.	.	.	2d/	.	.
.	.	.	.	.	.	4B\	.	.	.	.	.
=50-	=50-	=50-	=50-	=50-	=50-	=50-	=50-	=50-	=50-	=50-	=50-
!LO:TX:t=P:problem=kreska pseudotaktowa	!	!	!LO:TX:t=P:problem=kreska pseudotaktowa	!	!	!	!	!	!LO:TX:t=P:problem=kreska pseudotaktowa	!	!
1E	.	.	1G	.	.	2c\	.	.	1e	-dant	.
.	.	.	.	.	.	2.B\	.	.	.	.	.
*	*	*	*Xlig	*	*	*	*	*	*	*Xij	*
*	*	*	*lig	*	*	*	*	*	*	*	*
!	!	!	!LO:PB:g=original	!	!	!	!	!	!	!	!
1D	.	.	1F	fi-	.	.	.	.	2r	.	.
.	.	.	.	.	.	4A/	.	.	.	.	.
.	.	.	.	.	.	1d\	.	.	2f\	fi-	.
=51-	=51-	=51-	=51-	=51-	=51-	=51-	=51-	=51-	=51-	=51-	=51-
1E	.	.	1G	.	.	.	.	.	1e	-li-	.
!	!	!	!	!	!	!LO:SIC:v:s=2c#\:t=?	!	!	!	!	!
!	!	!	!	!	!	!LO:TX:t=P:problem=kreska pseudotaktowa	!	!	!	!	!
.	.	.	.	.	.	2c\	.	.	.	.	.
*	*	*	*Xlig	*	*	*	*	*	*	*	*
*custos:D	*	*	*	*	*	*	*	*	*	*	*
!LO:TX:t=P:problem=kreska pseudotaktowa	!	!	!	!	!	!	!	!	!LO:TX:t=P:problem=kreska pseudotaktowa	!	!
1D	.	.	1F	-li-	.	2d\	-dant	.	1f	-um	.
*	*	*	*	*	*	*	*Xij	*	*	*	*
.	.	.	.	.	.	2.A/	fi-	.	.	.	.
=52-	=52-	=52-	=52-	=52-	=52-	=52-	=52-	=52-	=52-	=52-	=52-
!LO:LB:g=original	!	!	!	!	!	!	!	!	!	!	!
2.D/	fi-	.	0F	-um	.	.	.	.	1.d	.	.
.	.	.	.	.	.	4G/	.	.	.	.	.
.	.	.	.	.	.	4F/	.	.	.	.	.
!	!	!	!	!	!	!LO:TX:t=P:problem=kreska pseudotaktowa	!	!	!	!	!
4C/	-li-	.	.	.	.	4E/	.	.	.	.	.
2BB-X/	-um	.	.	.	.	4D/	-li-	.	.	.	.
*	*	*	*	*	*	*custos:F	*	*	*	*	*
.	.	.	.	.	.	4E/	.	.	.	.	.
!LO:TX:t=P:problem=kreska pseudotaktowa	!	!	!	!	!	!LO:PB:g=original	!	!	!	!	!
2AA/	.	.	.	.	.	1F/	.	.	2c/	.	.
=53-	=53-	=53-	=53-	=53-	=53-	=53-	=53-	=53-	=53-	=53-	=53-
*	*	*	*lig	*	*	*	*	*	*	*	*
!	!	!	!	!	!	!	!	!	!LO:TX:t=P:problem=kreska pseudotaktowa	!	!
1GG	.	.	1G	.	.	.	.	.	1B-X	.	.
!	!	!	!	!	!	!LO:TX:t=P:problem=kreska pseudotaktowa	!	!	!	!	!
.	.	.	.	.	.	2E/	-um	.	.	.	.
2FF/	.	.	1A	.	.	2F/	.	.	2A/	.	.
*	*	*	*	*	*	*	*	*	*	*ij	*
2.F\	.	.	.	.	.	1A\	de-	.	2c/	fi-	.
*	*	*	*Xlig	*	*	*	*	*	*	*	*
=54-	=54-	=54-	=54-	=54-	=54-	=54-	=54-	=54-	=54-	=54-	=54-
.	.	.	1F	.	.	.	.	.	2d/	.	.
4E\	.	.	.	.	.	.	.	.	.	.	.
!LO:TX:t=P:problem=kreska pseudotaktowa	!	!	!	!	!	!	!	!	!LO:TX:t=P:problem=kreska pseudotaktowa	!	!
2D/	.	.	.	.	.	2B\	.	.	2.f\	-li-	.
1C	.	.	1G	.	.	2.c\	.	.	.	.	.
.	.	.	.	.	.	.	.	.	4e\	.	.
.	.	.	.	.	.	.	.	.	2.e\	.	.
!	!	!	!	!	!	!LO:TX:t=P:problem=kreska pseudotaktowa	!	!	!	!	!
.	.	.	.	.	.	4B/	.	.	.	.	.
=55-	=55-	=55-	=55-	=55-	=55-	=55-	=55-	=55-	=55-	=55-	=55-
1D	.	.	1F	.	.	4A/	.	.	.	.	.
.	.	.	.	.	.	4G/	.	.	4d\	.	.
.	.	.	.	.	.	1A	.	.	1d	.	.
!	!	!	!LO:TX:t=P:problem=kreska pseudotaktowa	!	!	!	!	!	!	!	!
2E\	fi-	.	1E	.	.	.	.	.	.	.	.
!	!	!	!	!	!	!	!	!	!LO:TX:t=P:problem=kreska pseudotaktowa	!	!
!LO:TX:t=P:problem=kreska pseudotaktowa	!	!	!	!	!	!	!	!	!LO:SIC:v:s=2c#/:t=?	!	!
2G\	-li-	.	.	.	.	2G/	-i	.	2c/	.	.
=56-	=56-	=56-	=56-	=56-	=56-	=56-	=56-	=56-	=56-	=56-	=56-
*	*	*	*lig	*	*	*	*	*	*	*	*
*	*	*	*	*	*	*	*	*	*custos:d	*	*
!	!	!	!	!	!	!LO:TX:t=P:problem=kreska pseudotaktowa	!	!	!	!	!
1F	-um	.	1D	de-	.	1A	.	.	2d/	-um	.
*	*	*	*	*	*	*	*	*	*	*Xij	*
!	!	!	!	!	!	!	!	!	!LO:PB:g=original	!	!
.	.	.	.	.	.	.	.	.	2.d/	de-	.
2.D/	de-	.	1F	.	.	2r	.	.	.	.	.
.	.	.	.	.	.	.	.	.	4c/	.	.
.	.	.	.	.	.	1A\	.	.	4A/	.	.
!LO:TX:t=P:problem=kreska pseudotaktowa	!	!	!	!	!	!	!	!	!LO:TX:t=P:problem=kreska pseudotaktowa	!	!
4C/	.	.	.	.	.	.	.	.	4Bny/	.	.
*	*	*	*Xlig	*	*	*	*	*	*	*	*
=57-	=57-	=57-	=57-	=57-	=57-	=57-	=57-	=57-	=57-	=57-	=57-
*	*	*	*lig	*	*	*	*	*	*	*	*
4AA/	.	.	1E	.	.	.	.	.	1c	.	.
4BBny/	.	.	.	.	.	.	.	.	.	.	.
!LO:TX:t=P:problem=kreska pseudotaktowa	!	!	!	!	!	!LO:TX:t=P:problem=kreska pseudotaktowa	!	!	!	!	!
2C/	.	.	.	.	.	2G/	de-	.	.	.	.
1D	.	.	1F	.	.	2F/	-i	.	2.A/	.	.
.	.	.	.	.	.	1A\	.	.	.	.	.
!	!	!	!	!	!	!	!	!	!LO:TX:t=P:problem=kreska pseudotaktowa	!	!
.	.	.	.	.	.	.	.	.	4B/	.	.
*	*	*	*Xlig	*	*	*	*	*	*	*	*
=58-	=58-	=58-	=58-	=58-	=58-	=58-	=58-	=58-	=58-	=58-	=58-
2AA/	.	.	0E	-i	.	.	.	.	2c/	.	.
*custos:AA	*	*	*	*	*	*	*	*	*	*	*
2BB-X/	.	.	.	.	.	2G/	.	.	1d	.	.
!LO:LB:g=original	!	!	!	!	!	!LO:TX:t=P:problem=kreska pseudotaktowa	!	!	!	!	!
1AA	-i	.	.	.	.	1A	.	.	.	.	.
!	!	!	!	!	!	!	!	!	!LO:TX:t=P:problem=kreska pseudotaktowa	!	!
!	!	!	!	!	!	!	!	!	!LO:SIC:v:s=2c#/:t=?	!	!
.	.	.	.	.	.	.	.	.	2c/	.	.
=59-	=59-	=59-	=59-	=59-	=59-	=59-	=59-	=59-	=59-	=59-	=59-
2r	.	.	00.D;	.	.	2r	.	.	2d/	.	.
*	*ij	*	*	*	*	*	*	*	*	*	*
!LO:TX:t=P:problem=kreska pseudotaktowa	!	!	!	!	!	!	!	!	!	!	!
2D/	fi-	.	.	.	.	2F/	fi-	.	2A/	.	.
2D/	-li-	.	.	.	.	2D/	-li-	.	2B-X/	.	.
!	!	!	!	!	!	!LO:TX:t=P:problem=kreska pseudotaktowa	!	!	!	!	!
2D/	-um	.	.	.	.	2F/	-um	.	2A/	.	.
=60-	=60-	=60-	=60-	=60-	=60-	=60-	=60-	=60-	=60-	=60-	=60-
2.GG/	de-	.	.	.	.	0G	de-	.	0B-y	.	.
!LO:TX:t=P:problem=kreska pseudotaktowa	!	!	!	!	!	!	!	!	!	!	!
4AA/	.	.	.	.	.	.	.	.	.	.	.
2BB-y/	.	.	.	.	.	.	.	.	.	.	.
2GG/	.	.	.	.	.	.	.	.	.	.	.
=61-	=61-	=61-	=61-	=61-	=61-	=61-	=61-	=61-	=61-	=61-	=61-
*	*	*	*	*	*	*custos:c	*	*	*custos:f	*	*
0D;;l	-i	.	.	.	.	0F;l	-i	.	0A;>l	-i	.
*	*Xij	*	*	*	*	*	*	*	*	*	*
=62||	=62||	=62||	=62||-	=62||-	=62||-	=62||	=62||	=62||	=62||	=62||	=62||
*M2/1	*	*	*M2/1	*	*	*M2/1	*	*	*	*	*
*met(C|)	*	*	*met(C|)	*	*	*met(C|)	*	*	*	*	*
!	!	!	!	!	!	!	!	!	!LO:LB:g=original	!	!
1F	Fe-	E-	1F	fe-	E-	1c	Fe-	E-	1f	fe-	E-
*	*	*	*lig	*	*	*	*	*	*	*	*
!LO:TX:t=P:problem=kreska pseudotaktowa	!	!	!	!	!	!	!	!	!	!	!
1C	-cit	-ru-	1G	-cit	-ru-	2.c\	-cit	-ru-	1e	-cit	-ru-
!	!	!	!	!	!	!LO:TX:t=P:problem=kreska pseudotaktowa	!	!	!	!	!
.	.	.	.	.	.	4B\	.	.	.	.	.
=63-	=63-	=63-	=63-	=63-	=63-	=63-	=63-	=63-	=63-	=63-	=63-
!	!	!	!	!	!	!	!	!	!LO:TX:t=P:problem=kreska pseudotaktowa	!	!
2.F\	mi-	-cta-	1A	.	.	4A/	.	-cta-	1c	mi-	-cta-
.	.	.	.	.	.	4G/	.	.	.	.	.
!	!	!	!	!	!	!LO:TX:t=P:problem=kreska pseudotaktowa	!	!	!	!	!
.	.	.	.	.	.	2F/	.	.	.	.	.
4E\	.	.	.	.	.	.	.	.	.	.	.
*	*	*	*Xlig	*	*	*	*	*	*	*	*
!LO:SIC:v:l:s=-hi	!	!	!	!	!	!	!	!	!LO:SIC:v:l:s=-hi	!	!
2D/	-chi	.	2A\	mi-	-cta-	2f\	mi-	.	2d\	-chi	.
*	*	*	*custos:A	*	*	*	*	*	*	*	*
!	!	!	!LO:SIC:v:l:s=-hi	!	!	!	!	!	!	!	!
!LO:TX:t=P:problem=kreska pseudotaktowa	!	!	!	!	!	!	!	!	!	!	!
2C/	.	-vit	2A\	-chi	-vit	2e\	.	-vit	2e\	.	.
=64-	=64-	=64-	=64-	=64-	=64-	=64-	=64-	=64-	=64-	=64-	=64-
!	!	!	!	!	!	!LO:SIC:v:l:s=-hi	!	!	!	!	!
!	!	!	!LO:LB:g=original	!	!	!LO:TX:t=P:problem=kreska pseudotaktowa	!	!	!	!	!
2D/	.	Cor	2A\	ma-	cor	1d	-chi	Cor	2f\	.	-uit
!	!	!	!	!	!	!	!	!	!LO:TX:t=P:problem=kreska pseudotaktowa	!	!
2D/	.	me-	2A\	-gna	me-	.	.	.	2f\	ma-	cor-
*	*	*	*lig	*	*	*	*	*	*	*	*
*custos:D	*	*	*	*	*	*	*	*	*	*	*
!LO:TX:t=P:problem=kreska pseudotaktowa	!	!	!	!	!	!	!	!	!	!	!
0AA	ma-	-u(m)	1A	qui	-u(m)	2.c\	.	me-	1e	-gna	-me-
.	.	.	.	.	.	4B\	.	.	.	.	.
=65-	=65-	=65-	=65-	=65-	=65-	=65-	=65-	=65-	=65-	=65-	=65-
!	!	!	!	!	!	!	!	!	!LO:TX:t=P:problem=kreska pseudotaktowa	!	!
.	.	.	1c	.	Ver-	2.A/	ma-	.	1e	qui	-u(m)
.	.	.	.	.	.	4G/	.	.	.	.	.
!	!	!	!	!	!	!LO:TX:t=P:problem=kreska pseudotaktowa	!	!	!	!	!
*	*	*	*Xlig	*	*	*	*	*	*	*	*
!LO:LB:g=original	!	!	!LO:TX:t=P:problem=kreska pseudotaktowa	!	!	!	!	!	!	!	!
1D	-gna	Ver-	0.A	po-	-bu(m)	1F	-gna	.	2.f\	po-	Ver-
.	.	.	.	.	.	.	.	.	4e\	.	.
=66-	=66-	=66-	=66-	=66-	=66-	=66-	=66-	=66-	=66-	=66-	=66-
2.F\	qui	.	.	.	.	2F/	.	-um	2d/	-tens	.
!	!	!	!	!	!	!	!	!	!LO:TX:t=P:problem=kreska pseudotaktowa	!	!
.	.	.	.	.	.	1f	.	Ver-	2c/	.	-bu(m)
!LO:TX:t=P:problem=kreska pseudotaktowa	!	!	!	!	!	!	!	!	!	!	!
4E\	.	.	.	.	.	.	.	.	.	.	.
2D\	.	-bu(m)	.	.	.	.	.	.	2d/	.	bo-
!	!	!	!	!	!	!LO:TX:t=P:problem=kreska pseudotaktowa	!	!	!	!	!
2C/	.	bo-	.	.	.	2e\	qui	.	2e\	.	.
=67-	=67-	=67-	=67-	=67-	=67-	=67-	=67-	=67-	=67-	=67-	=67-
*	*	*	*lig	*	*	*	*	*	*	*	*
1D	po-	.	1A	-tens	bo-	2.d\	.	-bu(m)	4f\	.	.
.	.	.	.	.	.	.	.	.	4d\	.	.
.	.	.	.	.	.	.	.	.	4e\	.	.
!	!	!	!	!	!	!	!	!	!LO:TX:t=P:problem=kreska pseudotaktowa	!	!
.	.	.	.	.	.	4c\	po-	bo-	4f\	.	.
2E\	-tens	.	1G	.	.	2B\	.	.	2.g\	.	.
4D/	.	.	.	.	.	2c\	.	.	.	.	.
4C/	.	.	.	.	.	.	.	.	8f\L	.	.
*	*	*	*	*	*	*	*	*	*custos:d	*	*
.	.	.	.	.	.	.	.	.	8e\J	.	.
!	!	!	!	!	!	!LO:TX:t=P:problem=kreska pseudotaktowa	!	!	!	!	!
*	*	*	*Xlig	*	*	*	*	*	*	*	*
=68-	=68-	=68-	=68-	=68-	=68-	=68-	=68-	=68-	=68-	=68-	=68-
*	*	*	*lig	*	*	*	*	*	*	*	*
!	!	!	!	!	!	!	!	!	!LO:LB:g=original	!	!
2BB/	.	.	1G	eſt	-nu(m)	2d\	.	.	2d/	est	.
*	*	*	*	*	*	*	*	*	*	*ij	*
!	!	!	!	!	!	!	!	!	!LO:TX:t=P:problem=kreska pseudotaktowa	!	!
2BB/	.	-nu(m)	.	.	.	2D/	-tes	.	2d/	qui	-nu(m)
!LO:TX:t=P:problem=kreska pseudotaktowa	!	!	!LO:TX:t=P:problem=kreska pseudotaktowa	!	!	!LO:TX:t=P:problem=kreska pseudotaktowa	!	!	!	!	!
1AA	eſt,	.	1A	.	.	1E	eſt,	-nu(m)	2c/	po-	di-
.	.	.	.	.	.	.	.	.	2c/	-tens	-co
*	*	*	*Xlig	*	*	*	*	*	*	*	*
=69-	=69-	=69-	=69-	=69-	=69-	=69-	=69-	=69-	=69-	=69-	=69-
*	*	*	*lig	*	*	*	*	*	*	*	*
*	*	*	*	*	*	*custos:E	*	*	*	*	*
2r	.	.	1G	et	di-	2r	.	.	2d/	est	e-
*	*	*	*	*	*	*	*	*	*	*Xij	*
!	!	!	!	!	!	!LO:LB:g=original	!	!	!	!	!
2C/	et	di-	.	.	.	2E/	et	di-	2e\	.	-go
!	!	!	!	!	!	!	!	!	!LO:TX:t=P:problem=kreska pseudotaktowa	!	!
2D/	.	-co	1F	.	.	2F/	.	-co	1d	.	.
1F\	ſanc-	e-	.	.	.	2D/	ſan-	e-	.	.	.
!	!	!	!	!	!	!LO:TX:t=P:problem=kreska pseudotaktowa	!	!	!	!	!
*	*	*	*Xlig	*	*	*	*	*	*	*	*
=70-	=70-	=70-	=70-	=70-	=70-	=70-	=70-	=70-	=70-	=70-	=70-
*	*	*	*lig	*	*	*	*	*	*	*	*
.	.	.	1G	ſanc-	-co	2C/	.	-go	2r	.	.
!LO:TX:t=P:problem=kreska pseudotaktowa	!	!	!	!	!	!	!	!	!	!	!
2E\	.	-go	.	.	.	2c\	-ctu(m)	di-	2c/	et	di-
!	!	!	!LO:TX:t=P:problem=kreska pseudotaktowa	!	!	!	!	!	!	!	!
1.D	-tum	di-	1A	.	e-	2A/	no-	.	2d/	.	-co
.	.	.	.	.	.	1d\	.	-co	1f\	ſanc-	e-
*	*	*	*Xlig	*	*	*	*	*	*	*	*
=71-	=71-	=71-	=71-	=71-	=71-	=71-	=71-	=71-	=71-	=71-	=71-
.	.	.	0A	-tum	-go	.	.	.	.	.	.
!LO:TX:t=P:problem=kreska pseudotaktowa	!	!	!	!	!	!LO:TX:t=P:problem=kreska pseudotaktowa	!	!	!LO:TX:t=P:problem=kreska pseudotaktowa	!	!
2C/	.	-co	.	.	.	2e\	-men	e-	2e\	.	-go
1D	no-	e-	.	.	.	1f	e-	-go	1d	-tum	o-
=72-	=72-	=72-	=72-	=72-	=72-	=72-	=72-	=72-	=72-	=72-	=72-
*	*	*	*lig	*	*	*	*	*	*	*	*
2AA/	-men	-go	1A	.	o-	1e	-ius	.	2c/	no-	-pe-
1A	e-	o-	.	.	.	.	.	.	4c/	-men	-ra
!	!	!	!	!	!	!	!	!	!LO:TX:t=P:problem=kreska pseudotaktowa	!	!
.	.	.	.	.	.	.	.	.	4d/	.	.
.	.	.	1B	­	-pe-	2r	.	.	4e\	e-	.
.	.	.	.	.	.	.	.	.	4f\	.	.
*	*	*	*	*	*	*	*ij	*	*	*	*
*custos:F	*	*	*	*	*	*	*	*	*	*	*
!LO:TX:t=P:problem=kreska pseudotaktowa	!	!	!	!	!	!	!	!	!	!	!
2G\	-ius	-pe-	.	.	.	2d\	et	o-	2g\	.	.
!	!	!	!	!	!	!LO:TX:t=P:problem=kreska pseudotaktowa	!	!	!	!	!
*	*	*	*Xlig	*	*	*	*	*	*	*	*
=73-	=73-	=73-	=73-	=73-	=73-	=73-	=73-	=73-	=73-	=73-	=73-
*	*ij	*	*lig	*	*	*	*	*	*	*	*
!LO:LB:g=original	!	!	!	!	!	!	!	!	!	!	!
2F\	et	-ra	1c	.	-ra	2A/	.	-pe-	2a\	.	.
2E\	.	.	.	.	.	2.e\	ſanc-	-ra	2g\	.	.
*	*	*	*	*	*	*	*	*	*custos:e	*	*
!	!	!	!	!	!	!	!	!	!LO:TX:t=P:problem=kreska pseudotaktowa	!	!
2F\	ſanc-	.	1A	.	.	.	.	.	1f	.	me-
.	.	.	.	.	.	4d\	.	.	.	.	.
!LO:TX:t=P:problem=kreska pseudotaktowa	!	!	!	!	!	!	!	!	!	!	!
2D\	-tum	.	.	.	.	1d\	.	me-	.	.	.
*	*Xij	*	*Xlig	*	*	*	*	*	*	*	*
=74-	=74-	=74-	=74-	=74-	=74-	=74-	=74-	=74-	=74-	=74-	=74-
!	!	!	!	!	!	!	!	!	!LO:LB:g=original	!	!
1E	no-	me-	1G	no-	me-	.	.	.	4e\	.	.
.	.	.	.	.	.	.	.	.	4f\	.	.
!	!	!	!	!	!	!LO:TX:t=P:problem=kreska pseudotaktowa	!	!	!	!	!
.	.	.	.	.	.	2c\	-tum	.	4g\	.	.
!	!	!	!	!	!	!	!	!	!LO:TX:t=P:problem=kreska pseudotaktowa	!	!
.	.	.	.	.	.	.	.	.	4e\	.	.
1D	-me(n)	-a	1F	-men	-a	2d\	no-	.	2f\	.	-a
.	.	.	.	.	.	2A/	-men	-a	4e\	.	.
*	*	*	*	*	*	*	*Xij	*	*	*	*
.	.	.	.	.	.	.	.	.	4d\	.	.
=75-	=75-	=75-	=75-	=75-	=75-	=75-	=75-	=75-	=75-	=75-	=75-
*	*	*	*lig	*	*	*	*	*	*	*	*
0AA	e-	Re-	1F	e-	re-	0A	e-	re-	2c/	.	re-
.	.	.	.	.	.	.	.	.	1d	.	.
.	.	.	1E	.	.	.	.	.	.	.	.
!	!	!	!	!	!	!	!	!	!LO:SIC:v:s=2c#/:t=?	!	!
.	.	.	.	.	.	.	.	.	2c/	.	-gi
*	*	*	*Xlig	*	*	*	*	*	*	*	*
=76-	=76-	=76-	=76-	=76-	=76-	=76-	=76-	=76-	=76-	=76-	=76-
!	!	!	!	!	!	!LO:TX:a:i:t=Gloria\nVertat	!	!	!	!	!
0D\;;l	-ius	-gi	0D;l	-ius	-gi	0A;l/	-ius;	-gi	0dl;<	-ius	.
!LO:TX:a:t=Gloria Vertat	!	!	!	!	!	!	!	!	!LO:TX:a:i:t=Gloria Vertat	!	!
=77||	=77||	=77||	=77||	=77||	=77||	=77||-	=77||-	=77||-	=77||	=77||	=77||
!	!	!	!LO:LB:g=original	!	!	!LO:LB:g=original	!	!	!	!	!
1F	Ex-	E-	1F	Ex-	E-	1c	Ex-	E-	0r	.	.
*	*	*	*lig	*	*	*	*	*	*	*	*
2C/	-al-	-ru-	1G	-al-	-ru-	2c\	-al-	-ru-	.	.	.
2E/	-ta-	.	.	.	.	4B\	-ta-	.	.	.	.
.	.	.	.	.	.	4c\	.	.	.	.	.
=78-	=78-	=78-	=78-	=78-	=78-	=78-	=78-	=78-	=78-	=78-	=78-
1D	-ta	-cta-	1A	.	.	1d	-ta	-cta-	1f	Ex-	E-
*	*	*	*Xlig	*	*	*	*	*	*	*	*
1AA	es	.	1A	-ta	-cta-	2e\	eſ	.	2c/	-al-	-ru-
.	.	.	.	.	.	2E/	.	-vit	2e\	.	.
=79-	=79-	=79-	=79-	=79-	=79-	=79-	=79-	=79-	=79-	=79-	=79-
1D	ſanc-	-vit	1A	.	-vit	1F	.	Cor	1d	-ta-	-cta-
2AA/	.	cor	1A	es	cor	2E/	.	.	2c/	-ta	-vit
2D/	-ta	.	.	.	.	2D/	.	me-	2f\	es	cor
=80-	=80-	=80-	=80-	=80-	=80-	=80-	=80-	=80-	=80-	=80-	=80-
*custos:D	*	*	*	*	*	*	*	*	*custos:d	*	*
2C/	de-	me-	1A	ſanc-	me-	2E/	.	.	2e\	ſan-	.
!LO:LB:g=original	!	!	!	!	!	!	!	!	!LO:PB:g=original	!	!
2D/	.	.	.	.	.	2F/	.	.	1d	.	.
1AA	-i	-um	1A	-ta	-u(m)	1E	ſan-	-um	.	.	.
.	.	.	.	.	.	.	.	.	2c/	-cta	.
=81-	=81-	=81-	=81-	=81-	=81-	=81-	=81-	=81-	=81-	=81-	=81-
*	*	*	*lig	*	*	*	*	*	*	*	*
2D/	.	Ver-	1A	de-	Ver-	2D/	.	.	2.f\	de-	me-
2.F\	ge-	.	.	.	.	1A	-cta	Ver-	.	.	.
.	.	.	.	.	.	.	.	.	4e\	.	.
.	.	.	1c	.	.	.	.	.	4c/	.	.
4E\	-ni-	.	.	.	.	.	.	.	4d/	.	.
2C/	-trix	-bu(m)	.	.	.	2G/	de-	.	2.e\	.	.
*	*	*	*Xlig	*	*	*	*	*	*	*	*
=82-	=82-	=82-	=82-	=82-	=82-	=82-	=82-	=82-	=82-	=82-	=82-
!	!	!	!LO:TX:t=P:problem=wszystkie legowania w tym wersecie dotyczą drugiego tekstu	!	!	!	!	!	!	!	!
1D	.	bo-	[1A	-i	-bu(m)	1F	-i	-bum	.	.	.
.	.	.	.	.	.	.	.	.	4d/	.	.
.	.	.	.	.	.	.	.	.	1d	.	.
1AA	.	-nu(m)	1A]	ge-	.	2E/	ge-	.	.	.	.
.	.	.	.	.	.	4A/	-ni-	bo-	2c/	-i	-um
.	.	.	.	.	.	4G/	.	.	.	.	.
=83-	=83-	=83-	=83-	=83-	=83-	=83-	=83-	=83-	=83-	=83-	=83-
*	*ij	*	*lig	*	*	*	*	*	*	*	*
2D/	ge-	di-	1A	-ni-	bo-	4F/	.	.	1f	ge-	Ver-
.	.	.	.	.	.	4E/	.	.	.	.	.
*	*	*	*	*	*	*custos:E	*	*	*	*	*
2F\	.	-co	.	.	.	2D/	.	.	.	.	.
!	!	!	!	!	!	!LO:LB:g=original	!	!	!	!	!
2C/	-ni-	e-	1G	.	.	2E/	.	.	2e\	-ni-	-bu(m)
2D/	.	.	.	.	.	2F/	.	.	1d\	.	bo-
*	*	*	*Xlig	*	*	*	*	*	*	*	*
=84-	=84-	=84-	=84-	=84-	=84-	=84-	=84-	=84-	=84-	=84-	=84-
*	*	*	*lig	*	*	*	*	*	*	*	*
1E	.	.	1G	-trix	-nu(m)	1G	-ni-	-nu(m)	.	.	.
!	!	!	!	!	!	!	!	!	!LO:SIC:v:s=2c#/:t=?	!	!
.	.	.	.	.	.	.	.	.	2c/	-trix	-nu(m)
1D	-trix	-go	1A	.	.	1F	-trix	.	2d/	.	bo-
*	*Xij	*	*	*	*	*	*	*	*	*ij	*
.	.	.	.	.	.	.	.	.	2f\	ge-	.
*	*	*	*Xlig	*	*	*	*	*	*	*	*
=85-	=85-	=85-	=85-	=85-	=85-	=85-	=85-	=85-	=85-	=85-	=85-
*	*	*	*lig	*	*	*	*	*	*	*	*
2r	.	.	1G	ſu-	di-	1C	ſu-	di-	1e	-ni-	-nu(m)
2E\	ſu-	di-	.	.	.	.	.	.	.	.	.
2F\	-per	-co	1F	.	.	2D/	-per	-co	1d	-trix	.
*	*	*	*	*	*	*	*	*	*	*Xij	*
2D/	cho-	e-	.	.	.	1F/	cho-	e-	.	.	.
*	*	*	*Xlig	*	*	*	*	*	*	*	*
=86-	=86-	=86-	=86-	=86-	=86-	=86-	=86-	=86-	=86-	=86-	=86-
*	*	*	*lig	*	*	*	*	*	*	*	*
1C	-ros,	-go	1G	-per	-co	.	.	.	2r	.	.
.	.	.	.	.	.	2E/	.	.	2e\	ſu-	di-
2r	.	.	1A	.	.	2D/	-ros	-go	2f\	-per	-co
2D/	an-	o-	.	.	.	2F/	.	di-	2d/	cho-	e-
*	*	*	*Xlig	*	*	*	*	*	*	*	*
=87-	=87-	=87-	=87-	=87-	=87-	=87-	=87-	=87-	=87-	=87-	=87-
*	*	*	*	*	*	*	*	*	*custos:d	*	*
2AA/	-ge-	-pe-	[1A	cho-	e-	2E/	.	-co	2c/	 ros	-go
!	!	!	!	!	!	!	!	!	!LO:LB:g=original	!	!
1F	-lo-	-ra	.	.	.	1D	.	e-	1d	an-	di-
*	*	*	*custos:A	*	*	*	*	*	*	*	*
.	.	.	1A]	-ros	.	.	.	.	.	.	.
*custos:D	*	*	*	*	*	*	*	*	*	*	*
2E\	.	.	.	.	.	2C/	an-	.	2e\	.	-co
=88-	=88-	=88-	=88-	=88-	=88-	=88-	=88-	=88-	=88-	=88-	=88-
!LO:PB:g=original	!	!	!LO:LB:g=original	!	!	!	!	!	!	!	!
2D/	.	.	[1A	an-	-go	2D/	-ge-	-go	2f\	.	.
2C/	-rum	.	.	.	.	2E/	-lo-	.	2e\	-ge-	e-
!	!	!	!	!	!	!	!	!	!LO:TX:t=P:problem=oddech dotyczy drugiego, dopisanego tekstu	!	!
1D	.	me-	1A]	-ge-	.	1F	-rŭm	o-	1d,<	-lo-	-go
=89-	=89-	=89-	=89-	=89-	=89-	=89-	=89-	=89-	=89-	=89-	=89-
2AA/	ad	-a	[1A	-lo-	o-	2E/	.	-pe-	1c	-rum,	o-
2AA/	ce-	o-	.	.	.	2E/	.	-ra	.	.	.
2.FF/	-le-	-pe-	1A]	-rŭm	.	1F	.	me-	2c/	ad	-pe-
.	.	.	.	.	.	.	.	.	2.c/	ce-	-ra
4GG/	.	-ra	.	.	.	.	.	.	.	.	.
=90-	=90-	=90-	=90-	=90-	=90-	=90-	=90-	=90-	=90-	=90-	=90-
4AA/	.	.	1A	ad	-pe-	2E/	.	-a	.	.	.
4BB/	.	.	.	.	.	.	.	.	4d\	-le-	.
*	*	*	*	*	*	*custos:d	*	*	*	*	*
2C/	.	.	.	.	.	2e\	ad	o-	2e\	-ſti-	.
!	!	!	!	!	!	!LO:LB:g=original	!	!	!	!	!
2D/	.	.	1A	ce-	-ra	2d\	coe-	-pe-	2f\	-a	.
2E/	.	.	.	.	.	2.c\	-leſ-	-ra	1e\	re-	.
=91-	=91-	=91-	=91-	=91-	=91-	=91-	=91-	=91-	=91-	=91-	=91-
*	*	*	*lig	*	*	*	*	*	*	*	*
1F	-ſti-	me-	1A	-le-	me-	.	.	.	.	.	.
.	.	.	.	.	.	4B\	-ti-	.	.	.	.
.	.	.	.	.	.	1A	-a	me-	2d\	.	me-
1E	-a	-a	1B	.	.	.	.	.	0e	-gna,	-a
.	.	.	.	.	.	2G/	.	-a	.	.	.
*	*	*	*Xlig	*	*	*	*	*	*	*	*
=92-	=92-	=92-	=92-	=92-	=92-	=92-	=92-	=92-	=92-	=92-	=92-
*	*	*	*lig	*	*	*	*	*	*	*	*
2.AA/	re-	re-	1c	.	-a	4A/	.	me-	.	.	.
.	.	.	.	.	.	4B\	.	.	.	.	.
.	.	.	.	.	.	4c\	.	.	.	.	.
4BB/	.	.	.	.	.	4d\	.	.	.	.	.
2C/	.	.	1A	.	.	2e\	.	.	2r	.	.
2D/	.	.	.	.	.	1d\	.	.	2f\	ce-	o-
*	*	*	*Xlig	*	*	*	*	*	*	*	*
=93-	=93-	=93-	=93-	=93-	=93-	=93-	=93-	=93-	=93-	=93-	=93-
1E	.	.	1G	-ſti-	.	.	.	.	2g\	-le-	-pe-
.	.	.	.	.	.	2c\	.	.	2e\	-ſti-	-ra
2.D/	.	.	1F	-a	.	2d\	.	-a	2.f\	-a	me-
.	.	.	.	.	.	2A/	re-	re-	.	.	.
8C/L	.	.	.	.	.	.	.	.	8e\L	.	.
8BB/J	.	.	.	.	.	.	.	.	8d\J	.	.
=94-	=94-	=94-	=94-	=94-	=94-	=94-	=94-	=94-	=94-	=94-	=94-
*	*	*	*lig	*	*	*	*	*	*	*	*
0AA	-gna:	.	1F	re-	re-	0A	-gna	-gi	2c/	.	-a
*	*	*	*	*	*	*	*	*	*custos:c	*	*
.	.	.	.	.	.	.	.	.	1d	.	re-
.	.	.	1E	.	.	.	.	.	.	.	.
!	!	!	!	!	!	!	!	!	!LO:LB:g=original	!	!
!	!	!	!	!	!	!	!	!	!LO:SIC:v:s=2c#/:t=?	!	!
.	.	.	.	.	.	.	.	.	2c/	re-	.
*	*	*	*Xlig	*	*	*	*	*	*	*	*
=95-	=95-	=95-	=95-	=95-	=95-	=95-	=95-	=95-	=95-	=95-	=95-
0D\;;l	.	-gi	0D;l	-gna	-gi	0A;;l	.	.	0d;;l	-gna.	-gi
=96-	=96-	=96-	=96-	=96-	=96-	=96-	=96-	=96-	=96-	=96-	=96-
!LO:LB:g=original	!	!	!LO:PB:g=original	!	!	!LO:LB:g=original	!	!	!	!	!
1F	E-	.	1F	E-	.	1c	E-	.	1f	E-	.
*	*	*	*lig	*	*	*	*	*	*	*	*
1C	-ruc-	.	1G	-ruc-	.	2.c\	-ruc-	.	2.e\	-rŭc-	.
!	!	!	!	!	!	!	!	!	!LO:TX:t=P:problem=kreska pseudotaktowa	!	!
.	.	.	.	.	.	4B\	-ta-	.	4d\	-ta-	.
=97-	=97-	=97-	=97-	=97-	=97-	=97-	=97-	=97-	=97-	=97-	=97-
2.F\	-ta-	.	1A	.	.	2.A/	-uit	.	1c	-ŭit	.
4E\	.	.	.	.	.	4G/	.	.	.	.	.
*	*	*	*Xlig	*	*	*	*	*	*	*	*
2D/	-uit	.	1A	-ta-	.	4F/	.	.	1d	.	.
.	.	.	.	.	.	4G/	.	.	.	.	.
4C/	.	.	.	.	.	4A/	.	.	.	.	.
4BB/	.	.	.	.	.	4B/	.	.	.	.	.
=98-	=98-	=98-	=98-	=98-	=98-	=98-	=98-	=98-	=98-	=98-	=98-
2AA/	.	.	1A	-uit	.	2c\	.	.	2e\	cor	.
!	!	!	!	!	!	!	!	!	!LO:TX:t=P:problem=kreska pseudotaktowa	!	!
2D/	.	.	.	.	.	2d\	.	.	2f\	.	.
2C/	cor	.	1A	cor	.	2e\	.	.	2e\	me-	.
2.F\	me-	.	.	.	.	2A/	.	.	2c/	-u(m)	.
=99-	=99-	=99-	=99-	=99-	=99-	=99-	=99-	=99-	=99-	=99-	=99-
*	*	*	*	*	*	*	*	*	*lig	*	*
.	.	.	1A	me-	.	2c\	cor	.	1f	.	.
4E\	.	.	.	.	.	.	.	.	.	.	.
1D	.	.	.	.	.	2d\	me-	.	.	.	.
!	!	!	!	!	!	!	!	!	!LO:TX:t=P:problem=kreska pseudotaktowa	!	!
.	.	.	1A	-um	.	2A/	.	.	1e	.	.
2C/	.	.	.	.	.	4c\	-um	.	.	.	.
.	.	.	.	.	.	4B/	.	.	.	.	.
*	*	*	*	*	*	*	*	*	*Xlig	*	*
=100-	=100-	=100-	=100-	=100-	=100-	=100-	=100-	=100-	=100-	=100-	=100-
*	*	*	*lig	*	*	*	*	*	*	*	*
2D/	-ŭm	.	1A	uer-	.	4A/	ver-	.	2d/	.	.
.	.	.	.	.	.	4G/	.	.	.	.	.
2.F\	ver-	.	.	.	.	1A	.	.	2c/	.	.
.	.	.	1c	.	.	.	.	.	2f\	ŭer-	.
4E\	.	.	.	.	.	.	.	.	.	.	.
*	*	*	*	*	*	*	*	*	*custos:f	*	*
*	*	*	*	*	*	*custos:F	*	*	*	*	*
!	!	!	!	!	!	!	!	!	!LO:TX:t=P:problem=kreska pseudotaktowa	!	!
2C/	-bum	.	.	.	.	2G/	-bu(m)	.	2e\	-bu(m)	.
*	*	*	*Xlig	*	*	*	*	*	*	*	*
=101-	=101-	=101-	=101-	=101-	=101-	=101-	=101-	=101-	=101-	=101-	=101-
!	!	!	!	!	!	!LO:LB:g=original	!	!	!LO:LB:g=original	!	!
2D/	.	.	1A	-bum	.	2F/	.	.	2f\	bo-	.
2E\	.	.	.	.	.	2G/	bo-	.	1e	.	.
*	*	*	*lig	*	*	*	*	*	*	*	*
1F	bo-	.	1A	bo-	.	1A	.	.	.	.	.
!	!	!	!	!	!	!	!	!	!LO:TX:t=P:problem=kreska pseudotaktowa	!	!
.	.	.	.	.	.	.	.	.	2d\	.	.
=102-	=102-	=102-	=102-	=102-	=102-	=102-	=102-	=102-	=102-	=102-	=102-
2E\	.	.	1G	.	.	2.B\	.	.	2.g\	.	.
4D/	.	.	.	.	.	.	.	.	.	.	.
4C/	.	.	.	.	.	4c\	.	.	8f\L	.	.
.	.	.	.	.	.	.	.	.	8e\J	.	.
*	*	*	*Xlig	*	*	*	*	*	*	*	*
*	*	*	*lig	*	*	*	*	*	*	*	*
*custos:AA	*	*	*	*	*	*	*	*	*	*	*
!	!	!	!	!	!	!	!	!	!LO:TX:t=P:problem=kreska pseudotaktowa	!	!
1BB	-nŭm	.	1G	-nu(m)	.	2d\	.	.	1d	-nu(m),	.
.	.	.	.	.	.	2D/	.	.	.	.	.
=103-	=103-	=103-	=103-	=103-	=103-	=103-	=103-	=103-	=103-	=103-	=103-
!LO:LB:g=original	!	!	!	!	!	!	!	!	!	!	!
1AA	.	.	1A	.	.	2E/	-num	.	2c/	.	.
.	.	.	.	.	.	2A/	di-	.	2c/	di-	.
*	*	*	*Xlig	*	*	*	*	*	*	*	*
*	*	*	*lig	*	*	*	*	*	*	*	*
2r	.	.	1G	di-	.	2B\	-co	.	2d\	-co	.
2C/	di-	.	.	.	.	2c\	e-	.	2e\	e-	.
=104-	=104-	=104-	=104-	=104-	=104-	=104-	=104-	=104-	=104-	=104-	=104-
!	!	!	!	!	!	!	!	!	!LO:TX:t=P:problem=kreska pseudotaktowa	!	!
2D/	-co	.	1F	.	.	1A	-go	.	1f	-go,	.
1F	e-	.	.	.	.	.	.	.	.	.	.
*	*	*	*Xlig	*	*	*	*	*	*	*	*
*	*	*	*lig	*	*	*	*ij	*	*	*	*
.	.	.	1G	-co	.	2r	.	.	2r	.	.
!	!	!	!	!	!	!	!	!	!LO:TX:t=P:problem=kreska pseudotaktowa	!	!
2E/	.	.	.	.	.	2G/	di-	.	2c/	di-	.
=105-	=105-	=105-	=105-	=105-	=105-	=105-	=105-	=105-	=105-	=105-	=105-
2D/	.	.	1A	.	.	2F/	.	.	2d/	-co	.
2C/	.	.	.	.	.	2E/	-co	.	2.e\	e-	.
*	*	*	*Xlig	*	*	*	*	*	*	*	*
1D	.	.	1A	e-	.	1F	e-	.	.	.	.
.	.	.	.	.	.	.	.	.	4d\	.	.
.	.	.	.	.	.	.	.	.	1d\	-go	.
=106-	=106-	=106-	=106-	=106-	=106-	=106-	=106-	=106-	=106-	=106-	=106-
1AA	-go	.	1A	-go	.	1E	.	.	.	.	.
!	!	!	!	!	!	!	!	!	!LO:TX:t=P:problem=kreska pseudotaktowa	!	!
!	!	!	!	!	!	!	!	!	!LO:SIC:v:s=2c#/:t=?	!	!
.	.	.	.	.	.	.	.	.	2c/	.	.
2D/	o-	.	1A	o-	.	2D/	-go	.	2d/	o-	.
*	*	*	*	*	*	*	*Xij	*	*	*ij	*
2C/	-pe-	.	.	.	.	2A/	o-	.	2e\	-pe-	.
=107-	=107-	=107-	=107-	=107-	=107-	=107-	=107-	=107-	=107-	=107-	=107-
*	*	*	*custos:A	*	*	*	*	*	*	*	*
2D/	-ra	.	1A	-pe-	.	2F/	-pe-	.	2f\	-ra	.
*	*	*	*	*	*	*	*	*	*custos:d	*	*
2E\	.	.	.	.	.	2G/	-ra	.	1e	o-	.
*	*	*	*lig	*	*	*	*	*	*	*Xij	*
*	*	*	*	*	*	*custos:A	*	*	*	*	*
!	!	!	!LO:LB:g=original	!	!	!	!	!	!	!	!
1F	.	.	1A	-ra	.	2D/	me-	.	.	.	.
!	!	!	!	!	!	!	!	!	!LO:TX:t=P:problem=kreska pseudotaktowa	!	!
!	!	!	!	!	!	!LO:LB:g=original	!	!	!LO:PB:g=original	!	!
.	.	.	.	.	.	1A\	-a	.	2d/	-pe-	.
=108-	=108-	=108-	=108-	=108-	=108-	=108-	=108-	=108-	=108-	=108-	=108-
1E	me-	.	1B	.	.	.	.	.	1.e	-ra	.
.	.	.	.	.	.	2G/	re-	.	.	.	.
*	*	*	*Xlig	*	*	*	*	*	*	*	*
*	*	*	*lig	*	*	*	*	*	*	*	*
2AA/	-a	.	1c	.	.	2.A/	.	.	.	.	.
1A\	.	.	.	.	.	.	.	.	2.f\	me-	.
.	.	.	.	.	.	4B/	.	.	.	.	.
=109-	=109-	=109-	=109-	=109-	=109-	=109-	=109-	=109-	=109-	=109-	=109-
.	.	.	1A	.	.	2c\	.	.	.	.	.
.	.	.	.	.	.	.	.	.	4e\	.	.
4G\	re-	.	.	.	.	2A/	.	.	1d	.	.
4F\	.	.	.	.	.	.	.	.	.	.	.
*	*	*	*Xlig	*	*	*	*	*	*	*	*
1E	.	.	1G	me-	.	2B/	.	.	.	.	.
!	!	!	!	!	!	!	!	!	!LO:TX:t=P:problem=kreska pseudotaktowa	!	!
.	.	.	.	.	.	2G/	.	.	2c/	.	.
=110-	=110-	=110-	=110-	=110-	=110-	=110-	=110-	=110-	=110-	=110-	=110-
0D	.	.	1F	-a	.	0A	-gi	.	2d/	.	.
.	.	.	.	.	.	.	.	.	4c/	-a	.
!	!	!	!	!	!	!	!	!	!LO:TX:t=P:problem=kreska pseudotaktowa	!	!
.	.	.	.	.	.	.	.	.	4B/	.	.
*	*	*	*lig	*	*	*	*	*	*	*	*
.	.	.	1F	re-	.	.	.	.	2A/	.	.
.	.	.	.	.	.	.	.	.	1d\	.	.
=111-	=111-	=111-	=111-	=111-	=111-	=111-	=111-	=111-	=111-	=111-	=111-
1AA	.	.	1E	.	.	0A;;l	.	.	.	.	.
!	!	!	!	!	!	!	!	!	!LO:SIC:v:s=2c#/:t=?	!	!
.	.	.	.	.	.	.	.	.	2c/	re-	.
*	*	*	*Xlig	*	*	*	*	*	*	*	*
*	*	*	*custos:A	*	*	*	*	*	*	*	*
!	!	!	!LO:TX:t=P:problem=odnośnik do dopisanego Gloria	!	!	!	!	!	!	!	!
!	!	!	!LO:TX:b:i:t=do Piſa&colon;\n&colon;nego	!	!	!	!	!	!	!	!
1D;;l	-gi	.	1D;l	-gi	.	.	.	.	1d;<l	-gi,	.
=112||	=112||	=112||	=112||	=112||	=112||	=112||-	=112||-	=112||-	=112||	=112||	=112||
!LO:LB:g=original	!	!	!	!	!	!	!	!	!	!	!
1F	Glo-	.	1F	Glo-	.	1c	Glo-	.	0r	.	.
*	*	*	*lig	*	*	*	*	*	*	*	*
2E/	-ri-	.	1G	-ri-	.	2c\	-ri-	.	.	.	.
2C/	-a	.	.	.	.	2e\	-a	.	.	.	.
=113-	=113-	=113-	=113-	=113-	=113-	=113-	=113-	=113-	=113-	=113-	=113-
1D	.	.	1A	.	.	1d	.	.	1f	Glo-	.
*	*	*	*Xlig	*	*	*	*	*	*	*	*
1AA	.	.	1A	-a	.	4c\	.	.	2e\	-ri-	.
.	.	.	.	.	.	4B\	.	.	.	.	.
.	.	.	.	.	.	4A/	.	.	2c/	-a	.
*	*	*	*	*	*	*custos:F	*	*	*	*	*
.	.	.	.	.	.	4G/	.	.	.	.	.
=114-	=114-	=114-	=114-	=114-	=114-	=114-	=114-	=114-	=114-	=114-	=114-
*	*	*	*	*	*	*	*	*	*custos:c	*	*
!	!	!	!	!	!	!LO:LB:g=original	!	!	!	!	!
1D	pa-	.	1A	pa-	.	1F	pa-	.	1d	pa-	.
!	!	!	!	!	!	!	!	!	!LO:LB:g=original	!	!
1AA	-tri,	.	1A	-tri	.	1E	-tri;	.	1c	-tri,	.
=115-	=115-	=115-	=115-	=115-	=115-	=115-	=115-	=115-	=115-	=115-	=115-
1AA	et	.	1A	et	.	1E	et	.	1c	et	.
*	*	*	*custos:A	*	*	*	*	*	*	*	*
1.D	fi-	.	1A	fi-	.	1.F	fi-	.	1.d	fi-	.
=116-	=116-	=116-	=116-	=116-	=116-	=116-	=116-	=116-	=116-	=116-	=116-
!	!	!	!LO:LB:g=original	!	!	!	!	!	!	!	!
.	.	.	1A	-li-	.	.	.	.	.	.	.
2D/	-li-	.	.	.	.	2F/	-li-	.	2d/	-li-	.
2AA/	-o,	.	1A	-o	.	2E/	-o,	.	2c/	-o,	.
2D/	et	.	.	.	.	2D/	et	.	2f\	et	.
=117-	=117-	=117-	=117-	=117-	=117-	=117-	=117-	=117-	=117-	=117-	=117-
2C/	.	.	1A	et	.	2E/	ſpi-	.	2e\	.	.
2.F\	ſpi-	.	.	.	.	4D/	-ri-	.	2.a\	ſpi-	.
.	.	.	.	.	.	4E/	.	.	.	.	.
.	.	.	1A	ſpi-	.	4F/	.	.	.	.	.
4E\	-ri-	.	.	.	.	4G/	.	.	4g\	-ri-	.
2D/	.	.	.	.	.	4A/	.	.	2f\	.	.
.	.	.	.	.	.	4B\	.	.	.	.	.
=118-	=118-	=118-	=118-	=118-	=118-	=118-	=118-	=118-	=118-	=118-	=118-
*	*	*	*lig	*	*	*	*	*	*	*	*
2C/	.	.	1A	-ri-	.	2c\	.	.	2e\	.	.
2D/	.	.	.	.	.	1A	.	.	2.f\	.	.
2.AA/	.	.	1c	.	.	.	.	.	.	.	.
.	.	.	.	.	.	.	.	.	4e\	.	.
.	.	.	.	.	.	4G/	.	.	2.e\	.	.
*custos:C	*	*	*	*	*	*	*	*	*	*	*
4BB/	.	.	.	.	.	4F/	.	.	.	.	.
*	*	*	*Xlig	*	*	*	*	*	*	*	*
=119-	=119-	=119-	=119-	=119-	=119-	=119-	=119-	=119-	=119-	=119-	=119-
!LO:PB:g=original	!	!	!	!	!	!	!	!	!	!	!
2C/	.	.	1A	-tu-	.	2E/	-tu-	.	.	.	.
.	.	.	.	.	.	.	.	.	4d\	.	.
2D/	.	.	.	.	.	2F/	-i	.	1d	-tu-	.
1AA	-tu-	.	1A	-i	.	1E	ſan-	.	.	.	.
!	!	!	!	!	!	!	!	!	!LO:SIC:v:s=2c#/:t=?	!	!
.	.	.	.	.	.	.	.	.	2c/	-i	.
=120-	=120-	=120-	=120-	=120-	=120-	=120-	=120-	=120-	=120-	=120-	=120-
*	*	*	*lig	*	*	*	*	*	*	*	*
1D	-i	.	1A	ſanc-	.	1F	-cto,	.	1d	.	.
*	*	*	*	*	*	*custos:C	*	*	*	*	*
2E/	ſan-	.	1G	.	.	2r	.	.	2g\	ſan-	.
!	!	!	!	!	!	!LO:LB:g=original	!	!	!	!	!
4D/	.	.	.	.	.	2C/	ſan-	.	4f\	.	.
4C/	.	.	.	.	.	.	.	.	4e\	.	.
*	*	*	*Xlig	*	*	*	*	*	*	*	*
=121-	=121-	=121-	=121-	=121-	=121-	=121-	=121-	=121-	=121-	=121-	=121-
*	*	*	*lig	*	*	*	*	*	*	*	*
*	*	*	*	*	*	*	*	*	*custos:c	*	*
1BB	-cto,	.	1G	-to	.	1D	.	.	1d	.	.
!	!	!	!	!	!	!	!	!	!LO:LB:g=original	!	!
1AA	.	.	1A	.	.	1E	-cto;	.	2c/	-cto	.
.	.	.	.	.	.	.	.	.	2c/	ſi-	.
*	*	*	*Xlig	*	*	*	*	*	*	*	*
=122-	=122-	=122-	=122-	=122-	=122-	=122-	=122-	=122-	=122-	=122-	=122-
*	*	*	*lig	*	*	*	*	*	*	*	*
2r	.	.	1G	ſi-	.	2r	.	.	2d/	-cut	.
2E\	ſic-	.	.	.	.	2C/	ſic-	.	2e\	e-	.
2F\	-ut	.	1F	.	.	2D/	-ut	.	1d	-rat	.
2D/	e-	.	.	.	.	1F/	e-	.	.	.	.
*	*	*	*Xlig	*	*	*	*	*	*	*	*
=123-	=123-	=123-	=123-	=123-	=123-	=123-	=123-	=123-	=123-	=123-	=123-
*	*	*	*lig	*	*	*	*	*	*	*ij	*
1C	-rat	.	1G	-cut	.	.	.	.	2r	.	.
.	.	.	.	.	.	2E/	.	.	2e\	si-	.
*	*	*	*	*	*	*	*ij	*	*	*	*
2r	.	.	1A	.	.	2D,</	-rat	.	2f\	.	.
*	*ij	*	*	*	*	*	*	*	*	*	*
2D/	ſic-	.	.	.	.	2F/	ſi-	.	2d\	-cut	.
*	*	*	*Xlig	*	*	*	*	*	*	*	*
=124-	=124-	=124-	=124-	=124-	=124-	=124-	=124-	=124-	=124-	=124-	=124-
2.AA/	-ut	.	1A	e-	.	2E/	-cut	.	2c\	e-	.
.	.	.	.	.	.	2.A/	e-	.	2.e\	.	.
4BB/	.	.	.	.	.	.	.	.	.	.	.
2C/	e-	.	1A	-rat	.	.	.	.	.	.	.
.	.	.	.	.	.	4G/	.	.	4d\	.	.
2D/	.	.	.	.	.	2F/	.	.	1d\	.	.
=125-	=125-	=125-	=125-	=125-	=125-	=125-	=125-	=125-	=125-	=125-	=125-
1AA	-rat	.	1A	in	.	1E	.	.	.	.	.
*	*Xij	*	*	*	*	*	*	*	*	*	*
!	!	!	!	!	!	!	!	!	!LO:SIC:v:s=2c#/:t=?	!	!
.	.	.	.	.	.	.	.	.	2c/	.	.
2r	.	.	1A	prin-	.	2D,</	-rat	.	2d/	-rat	.
*	*	*	*	*	*	*	*Xij	*	*	*Xij	*
*custos:AA	*	*	*	*	*	*	*	*	*	*	*
1AA/	in	.	.	.	.	1E/	in	.	1c\	in	.
=126-	=126-	=126-	=126-	=126-	=126-	=126-	=126-	=126-	=126-	=126-	=126-
.	.	.	1A	-ci-	.	.	.	.	.	.	.
!LO:LB:g=original	!	!	!	!	!	!	!	!	!	!	!
2AA/	prin-	.	.	.	.	2E/	prin-	.	2c/	prin-	.
2AA/	-ci-	.	1A	-pi-	.	2E/	-ci-	.	2c/	-ci-	.
2AA/	-pi-	.	.	.	.	2E/	-pi-	.	2c/	-pi-	.
=127-	=127-	=127-	=127-	=127-	=127-	=127-	=127-	=127-	=127-	=127-	=127-
*	*	*	*custos:A	*	*	*custos:A	*	*	*	*	*
2D/	-o	.	1A	-o	.	2F/	-o	.	1d	-o,	.
!	!	!	!	!	!	!LO:LB:g=original	!	!	!	!	!
2.F\	et	.	.	.	.	2.A/	et	.	.	.	.
*	*	*	*	*	*	*	*	*	*custos:f	*	*
!	!	!	!LO:LB:g=original	!	!	!	!	!	!	!	!
.	.	.	1A	et	.	.	.	.	1f	et	.
4E\	.	.	.	.	.	4G/	.	.	.	.	.
4D/	.	.	.	.	.	4F/	.	.	.	.	.
4C/	.	.	.	.	.	4E/	.	.	.	.	.
=128-	=128-	=128-	=128-	=128-	=128-	=128-	=128-	=128-	=128-	=128-	=128-
*	*	*	*lig	*	*	*	*	*	*	*	*
!	!	!	!	!	!	!	!	!	!LO:LB:g=original	!	!
1D	.	.	1A	nunc	.	1F	.	.	2f\	nŭnc	.
.	.	.	.	.	.	.	.	.	4e\	.	.
.	.	.	.	.	.	.	.	.	4d\	.	.
1C	nŭnc	.	1c	.	.	2G/	.	.	2e\	.	.
.	.	.	.	.	.	2E,</	.	.	2g\	.	.
*	*	*	*Xlig	*	*	*	*	*	*	*	*
=129-	=129-	=129-	=129-	=129-	=129-	=129-	=129-	=129-	=129-	=129-	=129-
2D/	.	.	1A	et	.	2F/	nu(n)c	.	2f\	et	.
2E\	et	.	.	.	.	2G/	et	.	1e	.	.
*	*	*	*lig	*	*	*	*	*	*	*	*
2.F\	.	.	1A	ſem-	.	4A/	.	.	.	.	.
.	.	.	.	.	.	4F/	.	.	.	.	.
.	.	.	.	.	.	2f\	.	.	2d\	ſem-	.
4E\	ſem-	.	.	.	.	.	.	.	.	.	.
=130-	=130-	=130-	=130-	=130-	=130-	=130-	=130-	=130-	=130-	=130-	=130-
2C/	-per,	.	1G	.	.	2e\	.	.	2e\	-per	.
*	*	*	*	*	*	*	*	*	*	*ij	*
2D/	.	.	.	.	.	1d	.	.	2f\	et	.
*	*	*	*Xlig	*	*	*	*	*	*	*	*
*	*	*	*lig	*	*	*	*	*	*	*	*
1E	.	.	1G	-per	.	.	.	.	1g	ſem-	.
.	.	.	.	.	.	2c,\	.	.	.	.	.
=131-	=131-	=131-	=131-	=131-	=131-	=131-	=131-	=131-	=131-	=131-	=131-
1D	.	.	1A	.	.	1d	ſem-	.	1f	-per	.
*	*	*	*Xlig	*	*	*	*	*	*	*Xij	*
2r	.	.	1G	et	.	1B	-per	.	1d	et	.
2GG/	et	.	.	.	.	.	.	.	.	.	.
=132-	=132-	=132-	=132-	=132-	=132-	=132-	=132-	=132-	=132-	=132-	=132-
1D	in	.	1F	.	.	1A	et	.	2.d/	in	.
.	.	.	.	.	.	.	.	.	4c/	.	.
*	*	*	*lig	*	*	*	*	*	*	*	*
2.E/	ſe-	.	1G	in	.	2.G/	in	.	2B/	.	.
.	.	.	.	.	.	.	.	.	2.e\	ſe-	.
*custos:C	*	*	*	*	*	*	*	*	*	*	*
4D/	.	.	.	.	.	4F/	.	.	.	.	.
=133-	=133-	=133-	=133-	=133-	=133-	=133-	=133-	=133-	=133-	=133-	=133-
!LO:LB:g=original	!	!	!	!	!	!	!	!	!	!	!
2C/	.	.	1A	.	.	2E/	ſe-	.	.	.	.
.	.	.	.	.	.	.	.	.	4d\	.	.
*	*	*	*	*	*	*custos:E	*	*	*	*	*
2D/	-cu-	.	.	.	.	2F/	.	.	1d	.	.
*	*	*	*Xlig	*	*	*	*	*	*	*	*
!	!	!	!	!	!	!LO:PB:g=original	!	!	!	!	!
1AA	-la	.	1A	ſe-	.	1E	-cu-	.	.	.	.
!	!	!	!	!	!	!	!	!	!LO:SIC:v:s=2c#/:t=?	!	!
.	.	.	.	.	.	.	.	.	2c/	-cu-	.
=134-	=134-	=134-	=134-	=134-	=134-	=134-	=134-	=134-	=134-	=134-	=134-
2r	.	.	1A	-cu-	.	2D/	-la	.	2d/	-la	.
2D/	ſe-	.	.	.	.	2d\	ſe-	.	2f\	ſe-	.
*	*	*	*	*	*	*	*	*	*custos:d	*	*
2C/	-cu-	.	1A	-la	.	2e\	-cu-	.	2e\	-cu-	.
!	!	!	!	!	!	!	!	!	!LO:PB:g=original	!	!
2D/	-lo-	.	.	.	.	2f\	-lo-	.	2d/	-lo-	.
=135-	=135-	=135-	=135-	=135-	=135-	=135-	=135-	=135-	=135-	=135-	=135-
2AA/	-rum	.	1A	ſe-	.	2e\	.	.	2c/	-rum	.
2D/	a-	.	.	.	.	1d	-rum	.	2f\	.	.
*	*	*	*lig	*	*	*	*	*	*	*	*
1AA	-men	.	1A	-cu-	.	.	.	.	1e	A-	.
.	.	.	.	.	.	2c\	;	.	.	.	.
=136-	=136-	=136-	=136-	=136-	=136-	=136-	=136-	=136-	=136-	=136-	=136-
1r	.	.	1B	.	.	2d\	.	.	2d\	.	.
.	.	.	.	.	.	2G/	.	.	2g\	.	.
*	*	*	*Xlig	*	*	*	*	*	*	*	*
*	*ij	*	*lig	*	*	*	*	*	*	*	*
2.AA/	a-	.	1c	-lo-	.	4A/	A-	.	2.e\	.	.
.	.	.	.	.	.	4B/	.	.	.	.	.
.	.	.	.	.	.	4c\	.	.	.	.	.
4BB/	.	.	.	.	.	4d\	.	.	4d\	.	.
=137-	=137-	=137-	=137-	=137-	=137-	=137-	=137-	=137-	=137-	=137-	=137-
2C/	.	.	1A	.	.	2e\	.	.	2c/	.	.
2D/	.	.	.	.	.	1d	.	.	2f\	.	.
*	*	*	*Xlig	*	*	*	*	*	*	*	*
1E	.	.	1G	-rum	.	.	.	.	2g\	.	.
.	.	.	.	.	.	2c\	.	.	2e\	.	.
=138-	=138-	=138-	=138-	=138-	=138-	=138-	=138-	=138-	=138-	=138-	=138-
2D/	.	.	1F	;	.	2d\	.	.	2.f\	.	.
4C/	.	.	.	.	.	2A/	.	.	.	.	.
4BB/	.	.	.	.	.	.	.	.	8e\L	.	.
.	.	.	.	.	.	.	.	.	8d\J	.	.
*	*	*	*lig	*	*	*	*	*	*	*	*
0AA	.	.	1F	A-	.	0A	-men	.	2c/	.	.
.	.	.	.	.	.	.	.	.	1d\	.	.
=139-	=139-	=139-	=139-	=139-	=139-	=139-	=139-	=139-	=139-	=139-	=139-
.	.	.	1E	.	.	.	.	.	.	.	.
!	!	!	!	!	!	!	!	!	!LO:SIC:v:s=2c#/:t=?	!	!
.	.	.	.	.	.	.	.	.	2c/	.	.
*	*	*	*Xlig	*	*	*	*	*	*	*	*
1D;;l	-men	.	1D;l	-men	.	1A;;l	.	.	1d;;l	-men	.
*	*Xij	*	*	*	*	*	*	*	*	*	*
==	==	==	==	==	==	==	==	==	==	==	==
*-	*-	*-	*-	*-	*-	*-	*-	*-	*-	*-	*-
!!!system-decoration: [(s1,s2,s3,s4)]
!!!ENC: Mateusz Solarz
!!!END: 2022-03-03
!!!ENC: Krzysztof Stępień
!!!END: 2022-03-14
!!!RDF**kern: l = terminal long
!!!RDF**kern: > = above
!!!RDF**kern: < = below
